; generated by Slic3r 1.3.0 on 2021-07-21 at 12:32:04

; external perimeters extrusion width = 0.55mm (5.57mm^3/s)
; perimeters extrusion width = 0.58mm (11.78mm^3/s)
; infill extrusion width = 0.58mm (15.71mm^3/s)
; solid infill extrusion width = 0.58mm (3.93mm^3/s)
; top infill extrusion width = 0.58mm (2.95mm^3/s)

M107
M190 S65 ; set bed temperature and wait for it to be reached
M104 S205 ; set temperature
G28 ; home all axes
G1 Z5 F5000 ; lift nozzle

; Filament gcode

M109 S205 ; set temperature and wait for it to be reached
G21 ; set units to millimeters
G90 ; use absolute coordinates
M82 ; use absolute distances for extrusion
G92 E0
G1 Z0.500 F7800.000
G1 E-2.00000 F2400.00000
G92 E0
G1 X44.703 Y27.596 F7800.000
G1 E2.00000 F2400.00000
G1 F1800
G1 X45.673 Y26.081 E2.33391
G1 X49.879 Y21.090 E3.54500
G1 X51.208 Y19.877 E3.87891
G1 X56.562 Y16.146 E5.09000
G1 X58.160 Y15.318 E5.42390
G1 X64.298 Y13.099 E6.63500
G1 X66.055 Y12.713 E6.96890
G1 X72.558 Y12.158 E8.17999
G1 X74.355 Y12.241 E8.51390
G1 X74.757 Y12.312 E8.58959
G1 X80.780 Y13.388 E9.72499
G1 X82.495 Y13.933 E10.05890
G1 X88.404 Y16.703 E11.26999
G1 X89.919 Y17.673 E11.60390
G1 X94.910 Y21.879 E12.81499
G1 X96.123 Y23.208 E13.14890
G1 X99.874 Y28.591 E14.36647
G1 X142.702 Y90.719 E28.36945
G1 X143.087 Y91.358 E28.50791
G1 X143.619 Y92.363 E28.71889
G1 X143.933 Y93.040 E28.85738
G1 X144.334 Y94.048 E29.05878
G1 X144.592 Y94.803 E29.20685
G1 X144.896 Y95.899 E29.41785
G1 X145.056 Y96.628 E29.55633
G1 X145.240 Y97.750 E29.76730
G1 X145.321 Y98.492 E29.90580
G1 X145.383 Y99.627 E30.11682
G1 X145.383 Y100.373 E30.25527
G1 X145.321 Y101.508 E30.46625
G1 X145.240 Y102.250 E30.60475
G1 X145.056 Y103.372 E30.81573
G1 X144.896 Y104.101 E30.95422
G1 X144.592 Y105.197 E31.16520
G1 X144.354 Y105.904 E31.30370
G1 X143.933 Y106.960 E31.51468
G1 X143.619 Y107.637 E31.65317
G1 X143.087 Y108.642 E31.86419
G1 X142.702 Y109.281 E32.00264
G1 X98.740 Y173.377 E46.42576
G1 X98.327 Y173.919 E46.55233
G1 X94.121 Y178.910 E47.76342
G1 X92.792 Y180.123 E48.09733
G1 X87.438 Y183.854 E49.30842
G1 X85.840 Y184.682 E49.64233
G1 X79.702 Y186.901 E50.85342
G1 X77.945 Y187.287 E51.18733
G1 X71.442 Y187.842 E52.39842
G1 X69.645 Y187.759 E52.73232
G1 X63.220 Y186.612 E53.94342
G1 X61.505 Y186.067 E54.27732
G1 X55.596 Y183.297 E55.48841
G1 X54.081 Y182.327 E55.82232
G1 X49.090 Y178.121 E57.03341
G1 X47.877 Y176.792 E57.36732
G1 X44.145 Y171.438 E58.57842
G1 X43.318 Y169.840 E58.91232
G1 X41.099 Y163.702 E60.12341
G1 X40.713 Y161.945 E60.45732
G1 X40.158 Y155.442 E61.66841
G1 X40.133 Y154.856 E61.77726
G1 X40.133 Y42.856 E82.56117
G1 X40.241 Y41.645 E82.78685
G1 X41.388 Y35.220 E83.99794
G1 X41.933 Y33.505 E84.33185
G1 X44.671 Y27.664 E85.52902
G1 E83.52902 F2400.00000
G92 E0
G1 X75.545 Y169.820 F7800.000
G1 E2.00000 F2400.00000
G1 F1800
G1 X77.518 Y178.814 E3.70860
G1 X70.427 Y179.419 E5.02937
G1 X70.848 Y170.221 E6.73797
G1 X75.470 Y169.827 E7.59879
G1 X76.037 Y169.734 F7800.000
G1 E5.59879 F2400.00000
G92 E0
G1 X78.113 Y168.892 F7800.000
G1 E2.00000 F2400.00000
G1 F1800
G1 X81.980 Y166.196 E2.87473
G1 X88.186 Y172.998 E4.58334
G1 X82.347 Y177.068 E5.90410
G1 X78.147 Y168.958 E7.59879
G1 X77.754 Y168.544 F7800.000
G1 E5.59879 F2400.00000
G92 E0
G1 X83.740 Y164.108 F7800.000
G1 E2.00000 F2400.00000
G1 F1800
G1 X85.741 Y159.840 E2.87473
G1 X94.516 Y162.628 E4.58334
G1 X91.495 Y169.072 E5.90410
G1 X83.803 Y164.149 E7.59879
G1 X83.255 Y163.986 F7800.000
G1 E5.59879 F2400.00000
G92 E0
G1 X86.221 Y157.152 F7800.000
G1 E2.00000 F2400.00000
G1 F1800
G1 X85.820 Y152.455 E2.87473
G1 X94.814 Y150.482 E4.58334
G1 X95.419 Y157.573 E5.90410
G1 X86.296 Y157.155 E7.59879
G1 X85.740 Y157.289 F7800.000
G1 E5.59879 F2400.00000
G92 E0
G1 X84.892 Y149.887 F7800.000
G1 E2.00000 F2400.00000
G1 F1800
G1 X82.196 Y146.020 E2.87473
G1 X88.998 Y139.814 E4.58334
G1 X93.068 Y145.653 E5.90410
G1 X84.958 Y149.853 E7.59879
G1 X84.544 Y150.246 F7800.000
G1 E5.59879 F2400.00000
G92 E0
G1 X80.108 Y144.260 F7800.000
G1 E2.00000 F2400.00000
G1 F1800
G1 X75.840 Y142.259 E2.87473
G1 X78.628 Y133.484 E4.58334
G1 X85.072 Y136.505 E5.90410
G1 X80.149 Y144.197 E7.59879
G1 X79.986 Y144.745 F7800.000
G1 E5.59879 F2400.00000
G92 E0
G1 X68.840 Y175.034 F7800.000
G1 E2.00000 F2400.00000
G1 F1800
G1 X68.692 Y178.266 E2.60038
G1 X67.399 Y178.035 E2.84428
G1 X68.378 Y174.951 E3.44467
G1 X68.767 Y175.021 E3.51792
G1 E1.51792 F2400.00000
G92 E0
G1 X59.747 Y170.904 F7800.000
G1 E2.00000 F2400.00000
G1 F1800
G1 X58.003 Y173.629 E2.60038
G1 X56.997 Y172.782 E2.84428
G1 X59.388 Y170.601 E3.44467
G1 X59.689 Y170.856 E3.51792
G1 E1.51792 F2400.00000
G92 E0
G1 X53.936 Y162.781 F7800.000
G1 E2.00000 F2400.00000
G1 F1800
G1 X51.063 Y164.269 E2.60038
G1 X50.616 Y163.032 E2.84428
G1 X53.777 Y162.339 E3.44467
G1 X53.911 Y162.710 E3.51792
G1 E1.51792 F2400.00000
G92 E0
G1 X52.966 Y152.840 F7800.000
G1 E2.00000 F2400.00000
G1 F1800
G1 X49.734 Y152.692 E2.60038
G1 X49.965 Y151.399 E2.84428
G1 X53.049 Y152.378 E3.44467
G1 X52.979 Y152.767 E3.51791
G1 E1.51791 F2400.00000
G92 E0
G1 X57.096 Y143.747 F7800.000
G1 E2.00000 F2400.00000
G1 F1800
G1 X54.371 Y142.003 E2.60038
G1 X55.218 Y140.998 E2.84428
G1 X57.399 Y143.388 E3.44466
G1 X57.144 Y143.689 E3.51791
G1 E1.51791 F2400.00000
G92 E0
G1 X65.219 Y137.936 F7800.000
G1 E2.00000 F2400.00000
G1 F1800
G1 X63.731 Y135.063 E2.60038
G1 X64.968 Y134.616 E2.84428
G1 X65.661 Y137.777 E3.44467
G1 X65.290 Y137.911 E3.51792
G1 E1.51792 F2400.00000
G92 E0
G1 X75.160 Y136.966 F7800.000
G1 E2.00000 F2400.00000
G1 F1800
G1 X75.308 Y133.734 E2.60038
G1 X76.601 Y133.965 E2.84428
G1 X75.622 Y137.049 E3.44467
G1 X75.233 Y136.979 E3.51792
G1 E1.51792 F2400.00000
G92 E0
G1 X84.253 Y141.096 F7800.000
G1 E2.00000 F2400.00000
G1 F1800
G1 X85.997 Y138.371 E2.60038
G1 X87.002 Y139.218 E2.84428
G1 X84.612 Y141.399 E3.44467
G1 X84.311 Y141.144 E3.51792
G1 E1.51792 F2400.00000
G92 E0
G1 X77.789 Y149.195 F7800.000
G1 E2.00000 F2400.00000
G1 F1800
G1 X78.491 Y149.861 E2.17961
G1 X79.118 Y150.598 E2.35922
G1 X79.661 Y151.399 E2.53882
G1 X79.897 Y151.844 E2.63224
G1 X80.114 Y152.255 E2.71843
G1 X80.473 Y153.154 E2.89804
G1 X80.731 Y154.086 E3.07765
G1 X80.888 Y155.041 E3.25726
G1 X80.940 Y156.008 E3.43686
G1 X80.888 Y156.974 E3.61647
G1 X80.731 Y157.929 E3.79608
G1 X80.473 Y158.862 E3.97569
G1 X80.114 Y159.761 E4.15530
G1 X79.661 Y160.616 E4.33490
G1 X79.118 Y161.417 E4.51451
G1 X78.491 Y162.155 E4.69412
G1 X77.789 Y162.821 E4.87373
G1 X77.018 Y163.406 E5.05334
G1 X76.189 Y163.905 E5.23294
G1 X75.310 Y164.312 E5.41255
G1 X74.393 Y164.621 E5.59216
G1 X73.536 Y164.809 E5.75495
G1 X72.498 Y164.933 E5.94904
G1 X71.518 Y164.933 E6.13091
G1 X70.556 Y164.829 E6.31052
G1 X69.610 Y164.621 E6.49013
G1 X68.693 Y164.312 E6.66973
G1 X67.815 Y163.905 E6.84934
G1 X66.985 Y163.406 E7.02895
G1 X66.215 Y162.821 E7.20856
G1 X65.512 Y162.155 E7.38817
G1 X64.886 Y161.417 E7.56777
G1 X64.342 Y160.616 E7.74738
G1 X63.889 Y159.761 E7.92699
G1 X63.531 Y158.862 E8.10660
G1 X63.272 Y157.929 E8.28621
G1 X63.115 Y156.974 E8.46581
G1 X63.063 Y156.008 E8.64542
G1 X63.115 Y155.041 E8.82503
G1 X63.272 Y154.086 E9.00464
G1 X63.531 Y153.154 E9.18425
G1 X63.889 Y152.255 E9.36385
G1 X64.342 Y151.399 E9.54346
G1 X64.886 Y150.598 E9.72307
G1 X65.512 Y149.861 E9.90268
G1 X66.215 Y149.195 E10.08229
G1 X66.985 Y148.609 E10.26189
G1 X67.815 Y148.110 E10.44150
G1 X68.693 Y147.704 E10.62111
G1 X69.610 Y147.395 E10.80072
G1 X70.556 Y147.187 E10.98033
G1 X71.518 Y147.082 E11.15993
G1 X72.486 Y147.082 E11.33954
G1 X73.448 Y147.187 E11.51915
G1 X74.393 Y147.395 E11.69876
G1 X75.310 Y147.704 E11.87837
G1 X76.189 Y148.110 E12.05797
G1 X77.018 Y148.609 E12.23758
G1 X77.729 Y149.150 E12.40327
G1 X77.210 Y149.876 F7800.000
G1 F1800
G1 X77.842 Y150.475 E12.56492
G1 X78.406 Y151.139 E12.72656
G1 X78.895 Y151.860 E12.88820
G1 X79.108 Y152.262 E12.97264
G1 X79.303 Y152.630 E13.04985
G1 X79.625 Y153.439 E13.21149
G1 X79.858 Y154.278 E13.37314
G1 X79.999 Y155.138 E13.53478
G1 X80.046 Y156.008 E13.69643
G1 X79.999 Y156.878 E13.85807
G1 X79.858 Y157.737 E14.01972
G1 X79.625 Y158.577 E14.18136
G1 X79.303 Y159.386 E14.34301
G1 X78.895 Y160.155 E14.50465
G1 X78.406 Y160.876 E14.66629
G1 X77.842 Y161.540 E14.82794
G1 X77.210 Y162.139 E14.98958
G1 X76.516 Y162.666 E15.15123
G1 X75.770 Y163.115 E15.31287
G1 X74.979 Y163.481 E15.47452
G1 X74.154 Y163.759 E15.63616
G1 X73.387 Y163.928 E15.78187
G1 X72.445 Y164.041 E15.95800
G1 X71.566 Y164.041 E16.12102
G1 X70.700 Y163.947 E16.28266
G1 X69.850 Y163.759 E16.44431
G1 X69.024 Y163.481 E16.60595
G1 X68.233 Y163.115 E16.76760
G1 X67.487 Y162.666 E16.92924
G1 X66.794 Y162.139 E17.09089
G1 X66.161 Y161.540 E17.25253
G1 X65.597 Y160.876 E17.41418
G1 X65.109 Y160.155 E17.57582
G1 X64.701 Y159.386 E17.73746
G1 X64.378 Y158.577 E17.89911
G1 X64.145 Y157.737 E18.06075
G1 X64.004 Y156.878 E18.22240
G1 X63.957 Y156.008 E18.38404
G1 X64.004 Y155.138 E18.54569
G1 X64.145 Y154.278 E18.70733
G1 X64.378 Y153.439 E18.86898
G1 X64.701 Y152.630 E19.03062
G1 X65.109 Y151.860 E19.19226
G1 X65.597 Y151.139 E19.35391
G1 X66.161 Y150.475 E19.51555
G1 X66.794 Y149.876 E19.67720
G1 X67.487 Y149.349 E19.83884
G1 X68.233 Y148.900 E20.00049
G1 X69.024 Y148.534 E20.16213
G1 X69.850 Y148.256 E20.32377
G1 X70.700 Y148.069 E20.48542
G1 X71.566 Y147.975 E20.64706
G1 X72.437 Y147.975 E20.80871
G1 X73.303 Y148.069 E20.97035
G1 X74.154 Y148.256 E21.13200
G1 X74.979 Y148.534 E21.29364
G1 X75.770 Y148.900 E21.45529
G1 X76.516 Y149.349 E21.61693
G1 X77.150 Y149.831 E21.76466
G1 X76.631 Y150.558 F7800.000
G1 F1800
G1 X77.193 Y151.090 E21.90834
G1 X77.694 Y151.680 E22.05202
G1 X78.129 Y152.321 E22.19570
G1 X78.319 Y152.680 E22.27115
G1 X78.492 Y153.005 E22.33938
G1 X78.778 Y153.725 E22.48306
G1 X78.985 Y154.471 E22.62674
G1 X79.111 Y155.235 E22.77042
G1 X79.152 Y156.008 E22.91411
G1 X79.111 Y156.781 E23.05779
G1 X78.985 Y157.545 E23.20147
G1 X78.778 Y158.291 E23.34515
G1 X78.492 Y159.010 E23.48883
G1 X78.129 Y159.694 E23.63251
G1 X77.694 Y160.335 E23.77619
G1 X77.193 Y160.925 E23.91987
G1 X76.631 Y161.458 E24.06355
G1 X76.015 Y161.926 E24.20723
G1 X75.351 Y162.326 E24.35091
G1 X74.648 Y162.651 E24.49460
G1 X73.915 Y162.898 E24.63828
G1 X73.238 Y163.047 E24.76690
G1 X72.392 Y163.148 E24.92507
G1 X71.615 Y163.148 E25.06924
G1 X70.845 Y163.064 E25.21292
G1 X70.089 Y162.898 E25.35661
G1 X69.355 Y162.651 E25.50029
G1 X68.652 Y162.326 E25.64397
G1 X67.989 Y161.926 E25.78765
G1 X67.372 Y161.458 E25.93133
G1 X66.810 Y160.925 E26.07501
G1 X66.309 Y160.335 E26.21869
G1 X65.875 Y159.694 E26.36237
G1 X65.512 Y159.010 E26.50605
G1 X65.225 Y158.291 E26.64973
G1 X65.018 Y157.545 E26.79341
G1 X64.893 Y156.781 E26.93710
G1 X64.851 Y156.008 E27.08078
G1 X64.893 Y155.235 E27.22446
G1 X65.018 Y154.471 E27.36814
G1 X65.225 Y153.725 E27.51182
G1 X65.512 Y153.005 E27.65550
G1 X65.875 Y152.321 E27.79918
G1 X66.309 Y151.680 E27.94286
G1 X66.810 Y151.090 E28.08654
G1 X67.372 Y150.558 E28.23023
G1 X67.989 Y150.089 E28.37391
G1 X68.652 Y149.690 E28.51759
G1 X69.355 Y149.365 E28.66127
G1 X70.089 Y149.118 E28.80495
G1 X70.845 Y148.951 E28.94863
G1 X71.615 Y148.868 E29.09231
G1 X72.389 Y148.868 E29.23599
G1 X73.159 Y148.951 E29.37967
G1 X73.915 Y149.118 E29.52335
G1 X74.648 Y149.365 E29.66703
G1 X75.351 Y149.690 E29.81072
G1 X76.015 Y150.089 E29.95440
G1 X76.571 Y150.512 E30.08416
G1 X76.631 Y150.558 F7800.000
G1 E28.08416 F2400.00000
G92 E0
G1 X81.041 Y147.484 F7800.000
G1 E2.00000 F2400.00000
G1 F1800
G1 X83.962 Y151.675 E2.94800
G1 X84.522 Y158.236 E4.16983
G1 X81.726 Y164.197 E5.39165
G1 X76.325 Y167.962 E6.61349
G1 X69.765 Y168.522 E7.83531
G1 X63.803 Y165.726 E9.05713
G1 X60.038 Y160.325 E10.27896
G1 X59.478 Y153.764 E11.50079
G1 X62.274 Y147.803 E12.72261
G1 X67.675 Y144.038 E13.94444
G1 X74.236 Y143.478 E15.16626
G1 X80.197 Y146.274 E16.38809
G1 X80.998 Y147.423 E16.64799
G1 E14.64799 F2400.00000
G92 E0
G1 X90.064 Y149.219 F7800.000
G1 E2.00000 F2400.00000
G1 F1800
G1 X92.937 Y147.731 E2.60038
G1 X93.384 Y148.968 E2.84428
G1 X90.223 Y149.661 E3.44466
G1 X90.089 Y149.290 E3.51791
G1 E1.51791 F2400.00000
G92 E0
G1 X91.034 Y159.160 F7800.000
G1 E2.00000 F2400.00000
G1 F1800
G1 X94.266 Y159.308 E2.60038
G1 X94.035 Y160.601 E2.84428
G1 X90.951 Y159.622 E3.44467
G1 X91.021 Y159.233 E3.51791
G1 E1.51791 F2400.00000
G92 E0
G1 X86.904 Y168.253 F7800.000
G1 E2.00000 F2400.00000
G1 F1800
G1 X89.629 Y169.997 E2.60038
G1 X88.782 Y171.002 E2.84428
G1 X86.601 Y168.612 E3.44467
G1 X86.856 Y168.311 E3.51792
G1 E1.51792 F2400.00000
G92 E0
G1 X78.781 Y174.064 F7800.000
G1 E2.00000 F2400.00000
G1 F1800
G1 X80.269 Y176.937 E2.60038
G1 X79.032 Y177.384 E2.84428
G1 X78.339 Y174.223 E3.44467
G1 X78.710 Y174.089 E3.51792
G1 E1.51792 F2400.00000
G92 E0
G1 X76.960 Y168.607 F7800.000
G1 E2.00000 F2400.00000
G1 F1800
G1 X81.529 Y177.430 E3.84382
G1 X78.379 Y178.569 E4.46551
G1 X76.249 Y168.864 E6.30933
G1 X69.992 Y169.398 E7.47462
G1 X69.538 Y179.324 E9.31844
G1 X66.240 Y178.735 E9.94014
G1 X69.248 Y169.265 E11.78396
G1 X63.562 Y166.599 E12.94925
G1 X58.206 Y174.968 E14.79307
G1 X55.644 Y172.809 E15.41477
G1 X62.984 Y166.112 E17.25859
G1 X59.393 Y160.960 E18.42388
G1 X50.570 Y165.529 E20.26770
G1 X49.431 Y162.379 E20.88939
G1 X59.136 Y160.249 E22.73321
G1 X58.602 Y153.992 E23.89850
G1 X48.676 Y153.538 E25.74233
G1 X49.265 Y150.240 E26.36402
G1 X58.735 Y153.248 E28.20784
G1 X61.401 Y147.562 E29.37313
G1 X53.032 Y142.206 E31.21695
G1 X55.191 Y139.644 E31.83865
G1 X61.888 Y146.984 E33.68247
G1 X67.040 Y143.393 E34.84776
G1 X62.471 Y134.570 E36.69158
G1 X65.621 Y133.431 E37.31327
G1 X67.751 Y143.136 E39.15709
G1 X74.008 Y142.602 E40.32238
G1 X74.462 Y132.676 E42.16620
G1 X77.760 Y133.265 E42.78790
G1 X74.752 Y142.735 E44.63172
G1 X80.438 Y145.401 E45.79701
G1 X85.794 Y137.032 E47.64083
G1 X88.356 Y139.191 E48.26253
G1 X81.016 Y145.888 E50.10635
G1 X84.607 Y151.040 E51.27164
G1 X93.430 Y146.471 E53.11546
G1 X94.569 Y149.621 E53.73715
G1 X84.864 Y151.751 E55.58097
G1 X85.398 Y158.008 E56.74626
G1 X95.324 Y158.462 E58.59008
G1 X94.735 Y161.760 E59.21178
G1 X85.265 Y158.752 E61.05560
G1 X82.599 Y164.438 E62.22089
G1 X90.968 Y169.794 E64.06471
G1 X88.809 Y172.356 E64.68640
G1 X82.112 Y165.016 E66.53023
G1 X77.022 Y168.564 E67.68160
G1 E65.68160 F2400.00000
G92 E0
G1 X73.152 Y141.779 F7800.000
G1 E2.00000 F2400.00000
G1 F1800
G1 X68.455 Y142.180 E2.87473
G1 X66.482 Y133.186 E4.58334
G1 X73.573 Y132.581 E5.90410
G1 X73.155 Y141.704 E7.59879
G1 X73.190 Y142.278 F7800.000
G1 E5.59879 F2400.00000
G92 E0
G1 X65.887 Y143.108 F7800.000
G1 E2.00000 F2400.00000
G1 F1800
G1 X62.020 Y145.804 E2.87473
G1 X55.814 Y139.002 E4.58334
G1 X61.653 Y134.932 E5.90410
G1 X65.853 Y143.042 E7.59879
G1 X66.169 Y143.521 F7800.000
G1 E5.59879 F2400.00000
G92 E0
G1 X60.260 Y147.892 F7800.000
G1 E2.00000 F2400.00000
G1 F1800
G1 X58.259 Y152.160 E2.87473
G1 X49.484 Y149.372 E4.58334
G1 X52.505 Y142.928 E5.90410
G1 X60.197 Y147.851 E7.59879
G1 X60.742 Y148.026 F7800.000
G1 E5.59879 F2400.00000
G92 E0
G1 X57.779 Y154.848 F7800.000
G1 E2.00000 F2400.00000
G1 F1800
G1 X58.180 Y159.545 E2.87473
G1 X49.186 Y161.518 E4.58334
G1 X48.581 Y154.427 E5.90410
G1 X57.704 Y154.845 E7.59879
G1 X58.263 Y154.724 F7800.000
G1 E5.59879 F2400.00000
G92 E0
G1 X59.108 Y162.113 F7800.000
G1 E2.00000 F2400.00000
G1 F1800
G1 X61.804 Y165.980 E2.87473
G1 X55.002 Y172.186 E4.58334
G1 X50.932 Y166.347 E5.90410
G1 X59.042 Y162.147 E7.59879
G1 X59.531 Y161.845 F7800.000
G1 E5.59879 F2400.00000
G92 E0
G1 X63.892 Y167.740 F7800.000
