; generated by Slic3r 1.3.0 on 2021-07-20 at 15:19:28

; external perimeters extrusion width = 0.55mm (5.57mm^3/s)
; perimeters extrusion width = 0.58mm (11.78mm^3/s)
; infill extrusion width = 0.58mm (15.71mm^3/s)
; solid infill extrusion width = 0.58mm (3.93mm^3/s)
; top infill extrusion width = 0.58mm (2.95mm^3/s)

M107
M190 S65 ; set bed temperature and wait for it to be reached
M104 S205 ; set temperature
G28 ; home all axes
G1 Z5 F5000 ; lift nozzle

; Filament gcode

M109 S205 ; set temperature and wait for it to be reached
G21 ; set units to millimeters
G90 ; use absolute coordinates
M82 ; use absolute distances for extrusion
G92 E0
G1 Z0.500 F7800.000
G1 E-2.00000 F2400.00000
G92 E0
G1 X57.298 Y34.719 F7800.000
G1 E2.00000 F2400.00000
G1 F1800
G1 X57.936 Y33.778 E2.21098
G1 X58.388 Y33.183 E2.34947
G1 X59.124 Y32.317 E2.56045
G1 X59.637 Y31.775 E2.69895
G1 X60.462 Y30.993 E2.90994
G1 X61.031 Y30.510 E3.04842
G1 X61.936 Y29.822 E3.25940
G1 X62.554 Y29.403 E3.39790
G1 X63.528 Y28.817 E3.60887
G1 X64.188 Y28.467 E3.74737
G1 X65.219 Y27.990 E3.95835
G1 X65.913 Y27.714 E4.09685
G1 X66.990 Y27.351 E4.30782
G1 X67.709 Y27.151 E4.44632
G1 X68.820 Y26.907 E4.65731
G1 X69.556 Y26.786 E4.79580
G1 X70.686 Y26.663 E5.00679
G1 X71.432 Y26.623 E5.14527
G1 X72.568 Y26.623 E5.35625
G1 X73.314 Y26.663 E5.49474
G1 X74.444 Y26.786 E5.70573
G1 X75.180 Y26.907 E5.84422
G1 X76.291 Y27.151 E6.05520
G1 X77.010 Y27.351 E6.19369
G1 X78.087 Y27.714 E6.40470
G1 X78.781 Y27.990 E6.54317
G1 X79.812 Y28.467 E6.75414
G1 X80.472 Y28.817 E6.89264
G1 X81.402 Y29.377 E7.09404
G1 X82.064 Y29.822 E7.24210
G1 X82.969 Y30.510 E7.45309
G1 X83.538 Y30.993 E7.59158
G1 X84.497 Y31.905 E7.83719
G1 X140.497 Y87.905 E22.53363
G1 X140.876 Y88.317 E22.63753
G1 X141.612 Y89.183 E22.84851
G1 X142.064 Y89.778 E22.98700
G1 X142.702 Y90.719 E23.19801
G1 X143.087 Y91.358 E23.33648
G1 X143.619 Y92.363 E23.54746
G1 X143.933 Y93.040 E23.68595
G1 X144.334 Y94.048 E23.88734
G1 X144.592 Y94.803 E24.03541
G1 X144.896 Y95.899 E24.24641
G1 X145.056 Y96.628 E24.38489
G1 X145.240 Y97.750 E24.59587
G1 X145.321 Y98.492 E24.73436
G1 X145.383 Y99.627 E24.94538
G1 X145.383 Y100.373 E25.08384
G1 X145.321 Y101.508 E25.29482
G1 X145.240 Y102.250 E25.43331
G1 X145.056 Y103.372 E25.64429
G1 X144.896 Y104.101 E25.78278
G1 X144.592 Y105.197 E25.99376
G1 X144.354 Y105.904 E26.13226
G1 X143.933 Y106.960 E26.34324
G1 X143.619 Y107.637 E26.48173
G1 X143.087 Y108.642 E26.69275
G1 X142.702 Y109.281 E26.83121
G1 X142.064 Y110.222 E27.04220
G1 X141.612 Y110.817 E27.18068
G1 X140.876 Y111.683 E27.39166
G1 X140.497 Y112.095 E27.49556
G1 X84.497 Y168.095 E42.19200
G1 X83.538 Y169.007 E42.43763
G1 X82.969 Y169.490 E42.57611
G1 X82.064 Y170.178 E42.78708
G1 X81.446 Y170.597 E42.92558
G1 X80.472 Y171.183 E43.13656
G1 X79.812 Y171.533 E43.27506
G1 X78.781 Y172.010 E43.48604
G1 X78.087 Y172.286 E43.62453
G1 X77.010 Y172.649 E43.83552
G1 X76.291 Y172.849 E43.97401
G1 X75.231 Y173.082 E44.17539
G1 X74.444 Y173.214 E44.32347
G1 X73.314 Y173.337 E44.53445
G1 X72.568 Y173.377 E44.67294
G1 X71.432 Y173.377 E44.88392
G1 X70.686 Y173.337 E45.02241
G1 X69.556 Y173.214 E45.23341
G1 X68.820 Y173.093 E45.37189
G1 X67.709 Y172.849 E45.58287
G1 X66.990 Y172.649 E45.72137
G1 X65.913 Y172.286 E45.93235
G1 X65.219 Y172.010 E46.07084
G1 X64.187 Y171.532 E46.28185
G1 X63.528 Y171.183 E46.42032
G1 X62.554 Y170.597 E46.63132
G1 X61.936 Y170.178 E46.76979
G1 X61.072 Y169.521 E46.97118
G1 X60.462 Y169.007 E47.11925
G1 X59.637 Y168.225 E47.33023
G1 X59.124 Y167.683 E47.46873
G1 X58.388 Y166.817 E47.67972
G1 X57.936 Y166.222 E47.81820
G1 X57.298 Y165.281 E48.02919
G1 X56.913 Y164.642 E48.16768
G1 X56.381 Y163.637 E48.37867
G1 X56.067 Y162.960 E48.51715
G1 X55.646 Y161.904 E48.72815
G1 X55.408 Y161.197 E48.86662
G1 X55.104 Y160.101 E49.07763
G1 X54.944 Y159.372 E49.21610
G1 X54.760 Y158.250 E49.42709
G1 X54.679 Y157.508 E49.56557
G1 X54.607 Y156.000 E49.84581
G1 X54.607 Y44.000 E70.62971
G1 X54.679 Y42.491 E70.90997
G1 X54.760 Y41.750 E71.04844
G1 X54.944 Y40.628 E71.25945
G1 X55.104 Y39.899 E71.39792
G1 X55.408 Y38.803 E71.60889
G1 X55.646 Y38.096 E71.74739
G1 X56.067 Y37.040 E71.95837
G1 X56.381 Y36.363 E72.09686
G1 X56.913 Y35.358 E72.30784
G1 X57.259 Y34.783 E72.43242
G1 E70.43242 F2400.00000
G92 E0
G1 X80.508 Y158.867 F7800.000
G1 E2.00000 F2400.00000
G1 F1800
G1 X80.148 Y159.770 E2.18039
G1 X79.693 Y160.629 E2.36078
G1 X79.147 Y161.433 E2.54117
G1 X78.518 Y162.174 E2.72157
G1 X77.812 Y162.843 E2.90196
G1 X77.038 Y163.431 E3.08235
G1 X76.205 Y163.932 E3.26274
G1 X75.323 Y164.340 E3.44313
G1 X74.402 Y164.651 E3.62352
G1 X73.452 Y164.859 E3.80392
G1 X72.486 Y164.965 E3.98431
G1 X71.514 Y164.965 E4.16470
G1 X70.548 Y164.859 E4.34509
G1 X69.598 Y164.651 E4.52548
G1 X68.677 Y164.340 E4.70587
G1 X67.795 Y163.932 E4.88627
G1 X66.962 Y163.431 E5.06666
G1 X66.188 Y162.843 E5.24705
G1 X65.482 Y162.174 E5.42744
G1 X64.853 Y161.433 E5.60783
G1 X64.307 Y160.629 E5.78822
G1 X63.852 Y159.770 E5.96862
G1 X63.492 Y158.867 E6.14901
G1 X63.232 Y157.930 E6.32940
G1 X63.075 Y156.971 E6.50979
G1 X63.022 Y156.000 E6.69018
G1 X63.075 Y155.029 E6.87057
G1 X63.232 Y154.070 E7.05097
G1 X63.492 Y153.133 E7.23136
G1 X63.852 Y152.230 E7.41175
G1 X64.307 Y151.371 E7.59214
G1 X64.853 Y150.567 E7.77253
G1 X65.482 Y149.826 E7.95292
G1 X66.188 Y149.157 E8.13331
G1 X66.962 Y148.569 E8.31371
G1 X67.795 Y148.068 E8.49410
G1 X68.677 Y147.660 E8.67449
G1 X69.598 Y147.349 E8.85488
G1 X70.548 Y147.141 E9.03527
G1 X71.514 Y147.035 E9.21566
G1 X72.486 Y147.035 E9.39606
G1 X73.452 Y147.141 E9.57645
G1 X74.402 Y147.349 E9.75684
G1 X75.323 Y147.660 E9.93723
G1 X76.205 Y148.068 E10.11762
G1 X77.038 Y148.569 E10.29801
G1 X77.812 Y149.157 E10.47841
G1 X78.518 Y149.826 E10.65880
G1 X79.147 Y150.567 E10.83919
G1 X79.693 Y151.371 E11.01958
G1 X80.148 Y152.230 E11.19997
G1 X80.508 Y153.133 E11.38036
G1 X80.768 Y154.070 E11.56076
G1 X80.925 Y155.029 E11.74115
G1 X80.978 Y156.000 E11.92154
G1 X80.925 Y156.971 E12.10193
G1 X80.768 Y157.930 E12.28232
G1 X80.528 Y158.794 E12.44880
G1 X80.508 Y158.867 F7800.000
G1 X81.491 Y159.139 F7800.000
G1 F1800
G1 X81.075 Y160.199 E12.65992
G1 X80.568 Y161.155 E12.86084
G1 X79.960 Y162.051 E13.06175
G1 X79.259 Y162.876 E13.26267
G1 X78.473 Y163.621 E13.46359
G1 X77.611 Y164.276 E13.66450
G1 X76.684 Y164.834 E13.86542
G1 X75.701 Y165.289 E14.06634
G1 X74.675 Y165.635 E14.26725
G1 X73.667 Y165.857 E14.45880
G1 X72.540 Y165.985 E14.66925
G1 X71.459 Y165.985 E14.86995
G1 X70.382 Y165.868 E15.07087
G1 X69.325 Y165.635 E15.27179
G1 X68.299 Y165.289 E15.47270
G1 X67.316 Y164.834 E15.67362
G1 X66.389 Y164.276 E15.87454
G1 X65.527 Y163.621 E16.07545
G1 X64.741 Y162.876 E16.27637
G1 X64.040 Y162.051 E16.47729
G1 X63.432 Y161.155 E16.67821
G1 X62.925 Y160.199 E16.87912
G1 X62.524 Y159.193 E17.08004
G1 X62.248 Y158.198 E17.27159
G1 X62.059 Y157.080 E17.48204
G1 X62.001 Y156.000 E17.68274
G1 X62.059 Y154.919 E17.88365
G1 X62.235 Y153.850 E18.08457
G1 X62.524 Y152.807 E18.28549
G1 X62.925 Y151.801 E18.48640
G1 X63.432 Y150.845 E18.68732
G1 X64.040 Y149.949 E18.88824
G1 X64.741 Y149.124 E19.08916
G1 X65.527 Y148.379 E19.29007
G1 X66.389 Y147.724 E19.49099
G1 X67.316 Y147.166 E19.69191
G1 X68.299 Y146.711 E19.89282
G1 X69.325 Y146.365 E20.09374
G1 X70.382 Y146.132 E20.29466
G1 X71.459 Y146.015 E20.49557
G1 X72.541 Y146.015 E20.69649
G1 X73.567 Y146.127 E20.88804
G1 X74.676 Y146.366 E21.09849
G1 X75.701 Y146.711 E21.29919
G1 X76.684 Y147.166 E21.50011
G1 X77.611 Y147.724 E21.70102
G1 X78.473 Y148.379 E21.90194
G1 X79.259 Y149.124 E22.10286
G1 X79.960 Y149.949 E22.30377
G1 X80.568 Y150.845 E22.50469
G1 X81.075 Y151.801 E22.70561
G1 X81.476 Y152.807 E22.90652
G1 X81.752 Y153.802 E23.09807
G1 X81.941 Y154.920 E23.30852
G1 X81.999 Y156.000 E23.50922
G1 X81.941 Y157.081 E23.71014
G1 X81.765 Y158.150 E23.91106
G1 X81.511 Y159.067 E24.08779
G1 X81.437 Y159.154 F7800.000
G1 X80.999 Y159.003 F7800.000
G1 F1800
G1 X80.610 Y159.987 E24.09222
G1 X80.130 Y160.892 E24.09650
G1 X79.552 Y161.745 E24.10080
G1 X78.889 Y162.525 E24.10508
G1 X78.143 Y163.232 E24.10938
G1 X77.325 Y163.853 E24.11367
G1 X76.444 Y164.383 E24.11797
G1 X75.512 Y164.815 E24.12226
G1 X74.538 Y165.143 E24.12656
G1 X73.538 Y165.360 E24.13084
G1 X72.517 Y165.474 E24.13513
G1 X71.483 Y165.474 E24.13945
G1 X70.465 Y165.363 E24.14373
G1 X69.458 Y165.142 E24.14804
G1 X68.488 Y164.815 E24.15232
G1 X67.556 Y164.383 E24.15661
G1 X66.675 Y163.853 E24.16091
G1 X65.857 Y163.232 E24.16520
G1 X65.111 Y162.525 E24.16950
G1 X64.446 Y161.742 E24.17379
G1 X63.870 Y160.892 E24.17808
G1 X63.390 Y159.987 E24.18236
G1 X63.007 Y159.026 E24.18669
G1 X62.737 Y158.042 E24.19095
G1 X62.567 Y157.022 E24.19528
G1 X62.512 Y156.000 E24.19955
G1 X62.567 Y154.974 E24.20385
G1 X62.733 Y153.960 E24.20814
G1 X63.008 Y152.970 E24.21244
G1 X63.389 Y152.016 E24.21673
G1 X63.868 Y151.111 E24.22101
G1 X64.448 Y150.255 E24.22533
G1 X65.111 Y149.475 E24.22961
G1 X65.857 Y148.768 E24.23391
G1 X66.675 Y148.147 E24.23820
G1 X67.556 Y147.617 E24.24250
G1 X68.488 Y147.185 E24.24679
G1 X69.462 Y146.857 E24.25109
G1 X70.465 Y146.637 E24.25538
G1 X71.483 Y146.526 E24.25966
G1 X72.517 Y146.526 E24.26398
G1 X73.531 Y146.638 E24.26825
G1 X74.541 Y146.858 E24.27257
G1 X75.512 Y147.185 E24.27685
G1 X76.444 Y147.617 E24.28114
G1 X77.325 Y148.147 E24.28544
G1 X78.140 Y148.766 E24.28972
G1 X78.889 Y149.475 E24.29403
G1 X79.552 Y150.255 E24.29831
G1 X80.132 Y151.111 E24.30263
G1 X80.611 Y152.016 E24.30691
G1 X80.992 Y152.970 E24.31120
G1 X81.263 Y153.958 E24.31548
G1 X81.433 Y154.976 E24.31980
G1 X81.488 Y156.000 E24.32409
G1 X81.433 Y157.026 E24.32838
G1 X81.267 Y158.040 E24.33267
G1 X81.019 Y158.931 E24.33654
G1 E22.33654 F2400.00000
G92 E0
G1 X80.508 Y102.867 F7800.000
G1 E2.00000 F2400.00000
G1 F1800
G1 X80.148 Y103.770 E2.18039
G1 X79.693 Y104.629 E2.36078
G1 X79.147 Y105.433 E2.54117
G1 X78.518 Y106.174 E2.72157
G1 X77.812 Y106.843 E2.90196
G1 X77.038 Y107.431 E3.08235
G1 X76.205 Y107.932 E3.26274
G1 X75.323 Y108.340 E3.44313
G1 X74.402 Y108.651 E3.62352
G1 X73.452 Y108.859 E3.80392
G1 X72.486 Y108.965 E3.98431
G1 X71.514 Y108.965 E4.16470
G1 X70.548 Y108.859 E4.34509
G1 X69.598 Y108.651 E4.52548
G1 X68.677 Y108.340 E4.70587
G1 X67.795 Y107.932 E4.88627
G1 X66.962 Y107.431 E5.06666
G1 X66.188 Y106.843 E5.24705
G1 X65.482 Y106.174 E5.42744
G1 X64.853 Y105.433 E5.60783
G1 X64.307 Y104.629 E5.78822
G1 X63.852 Y103.770 E5.96862
G1 X63.492 Y102.867 E6.14901
G1 X63.232 Y101.930 E6.32940
G1 X63.075 Y100.971 E6.50979
G1 X63.022 Y100.000 E6.69018
G1 X63.075 Y99.029 E6.87057
G1 X63.232 Y98.070 E7.05097
G1 X63.492 Y97.133 E7.23136
G1 X63.852 Y96.230 E7.41175
G1 X64.307 Y95.371 E7.59214
G1 X64.853 Y94.567 E7.77253
G1 X65.482 Y93.826 E7.95292
G1 X66.188 Y93.157 E8.13331
G1 X66.962 Y92.569 E8.31371
G1 X67.795 Y92.068 E8.49410
G1 X68.677 Y91.660 E8.67449
G1 X69.598 Y91.349 E8.85488
G1 X70.548 Y91.141 E9.03527
G1 X71.514 Y91.035 E9.21566
G1 X72.486 Y91.035 E9.39606
G1 X73.452 Y91.141 E9.57645
G1 X74.402 Y91.349 E9.75684
G1 X75.323 Y91.660 E9.93723
G1 X76.205 Y92.068 E10.11762
G1 X77.038 Y92.569 E10.29801
G1 X77.812 Y93.157 E10.47841
G1 X78.518 Y93.826 E10.65880
G1 X79.147 Y94.567 E10.83919
G1 X79.693 Y95.371 E11.01958
G1 X80.148 Y96.230 E11.19997
G1 X80.508 Y97.133 E11.38036
G1 X80.768 Y98.070 E11.56076
G1 X80.925 Y99.029 E11.74115
G1 X80.978 Y100.000 E11.92154
G1 X80.925 Y100.971 E12.10193
G1 X80.768 Y101.930 E12.28232
G1 X80.528 Y102.794 E12.44880
G1 X80.508 Y102.867 F7800.000
G1 X81.491 Y103.139 F7800.000
G1 F1800
G1 X81.075 Y104.199 E12.65992
G1 X80.568 Y105.155 E12.86084
G1 X79.960 Y106.051 E13.06175
G1 X79.259 Y106.876 E13.26267
G1 X78.473 Y107.621 E13.46359
G1 X77.611 Y108.276 E13.66450
G1 X76.684 Y108.834 E13.86542
G1 X75.701 Y109.289 E14.06634
G1 X74.675 Y109.635 E14.26725
G1 X73.667 Y109.857 E14.45880
G1 X72.540 Y109.985 E14.66925
G1 X71.459 Y109.985 E14.86995
G1 X70.382 Y109.868 E15.07087
G1 X69.325 Y109.635 E15.27179
G1 X68.299 Y109.289 E15.47270
G1 X67.316 Y108.834 E15.67362
G1 X66.389 Y108.276 E15.87454
G1 X65.527 Y107.621 E16.07545
G1 X64.741 Y106.876 E16.27637
G1 X64.040 Y106.051 E16.47729
G1 X63.432 Y105.155 E16.67821
G1 X62.925 Y104.199 E16.87912
G1 X62.524 Y103.193 E17.08004
G1 X62.248 Y102.198 E17.27159
G1 X62.059 Y101.080 E17.48204
G1 X62.001 Y100.000 E17.68274
G1 X62.059 Y98.919 E17.88365
G1 X62.235 Y97.850 E18.08457
G1 X62.524 Y96.807 E18.28549
G1 X62.925 Y95.801 E18.48640
G1 X63.432 Y94.845 E18.68732
G1 X64.040 Y93.949 E18.88824
G1 X64.741 Y93.124 E19.08916
G1 X65.527 Y92.379 E19.29007
G1 X66.389 Y91.724 E19.49099
G1 X67.316 Y91.166 E19.69191
G1 X68.299 Y90.711 E19.89282
G1 X69.325 Y90.365 E20.09374
G1 X70.382 Y90.132 E20.29466
G1 X71.459 Y90.015 E20.49557
G1 X72.541 Y90.015 E20.69649
G1 X73.567 Y90.127 E20.88804
G1 X74.676 Y90.366 E21.09849
G1 X75.701 Y90.711 E21.29919
G1 X76.684 Y91.166 E21.50011
G1 X77.611 Y91.724 E21.70102
G1 X78.473 Y92.379 E21.90194
G1 X79.259 Y93.124 E22.10286
G1 X79.960 Y93.949 E22.30377
G1 X80.568 Y94.845 E22.50469
G1 X81.075 Y95.801 E22.70561
G1 X81.476 Y96.807 E22.90652
G1 X81.752 Y97.802 E23.09807
G1 X81.941 Y98.920 E23.30852
G1 X81.999 Y100.000 E23.50922
G1 X81.941 Y101.081 E23.71014
G1 X81.765 Y102.150 E23.91106
G1 X81.511 Y103.067 E24.08779
G1 X81.437 Y103.154 F7800.000
G1 X80.999 Y103.003 F7800.000
G1 F1800
G1 X80.610 Y103.987 E24.09222
G1 X80.130 Y104.892 E24.09650
G1 X79.552 Y105.745 E24.10080
G1 X78.889 Y106.525 E24.10508
G1 X78.143 Y107.232 E24.10938
G1 X77.325 Y107.853 E24.11367
G1 X76.444 Y108.383 E24.11797
G1 X75.512 Y108.815 E24.12226
G1 X74.538 Y109.143 E24.12656
G1 X73.538 Y109.360 E24.13084
G1 X72.517 Y109.474 E24.13513
G1 X71.483 Y109.474 E24.13945
G1 X70.465 Y109.363 E24.14373
G1 X69.458 Y109.142 E24.14804
G1 X68.488 Y108.815 E24.15232
G1 X67.556 Y108.383 E24.15661
G1 X66.675 Y107.853 E24.16091
G1 X65.857 Y107.232 E24.16520
G1 X65.111 Y106.525 E24.16950
G1 X64.446 Y105.742 E24.17379
G1 X63.870 Y104.892 E24.17808
G1 X63.390 Y103.987 E24.18236
G1 X63.007 Y103.026 E24.18669
G1 X62.737 Y102.042 E24.19095
G1 X62.567 Y101.022 E24.19528
G1 X62.512 Y100.000 E24.19955
G1 X62.567 Y98.974 E24.20385
G1 X62.733 Y97.960 E24.20814
G1 X63.008 Y96.970 E24.21244
G1 X63.389 Y96.016 E24.21673
G1 X63.868 Y95.111 E24.22101
G1 X64.448 Y94.255 E24.22533
G1 X65.111 Y93.475 E24.22961
G1 X65.857 Y92.768 E24.23391
G1 X66.675 Y92.147 E24.23820
G1 X67.556 Y91.617 E24.24250
G1 X68.488 Y91.185 E24.24679
G1 X69.462 Y90.857 E24.25109
G1 X70.465 Y90.637 E24.25538
G1 X71.483 Y90.526 E24.25966
G1 X72.517 Y90.526 E24.26398
G1 X73.531 Y90.638 E24.26825
G1 X74.541 Y90.858 E24.27257
G1 X75.512 Y91.185 E24.27685
G1 X76.444 Y91.617 E24.28114
G1 X77.325 Y92.147 E24.28544
G1 X78.140 Y92.766 E24.28972
G1 X78.889 Y93.475 E24.29403
G1 X79.552 Y94.255 E24.29831
G1 X80.132 Y95.111 E24.30263
G1 X80.611 Y96.016 E24.30691
G1 X80.992 Y96.970 E24.31120
G1 X81.263 Y97.958 E24.31548
G1 X81.433 Y98.976 E24.31980
G1 X81.488 Y100.000 E24.32409
G1 X81.433 Y101.026 E24.32838
G1 X81.267 Y102.040 E24.33267
G1 X81.019 Y102.931 E24.33654
G1 E22.33654 F2400.00000
G92 E0
G1 X136.508 Y102.867 F7800.000
G1 E2.00000 F2400.00000
G1 F1800
G1 X136.148 Y103.770 E2.18039
G1 X135.693 Y104.629 E2.36078
G1 X135.147 Y105.433 E2.54117
G1 X134.518 Y106.174 E2.72157
G1 X133.812 Y106.843 E2.90196
G1 X133.038 Y107.431 E3.08235
G1 X132.205 Y107.932 E3.26274
G1 X131.323 Y108.340 E3.44313
G1 X130.402 Y108.651 E3.62352
G1 X129.452 Y108.859 E3.80392
G1 X128.486 Y108.965 E3.98431
G1 X127.514 Y108.965 E4.16470
G1 X126.548 Y108.859 E4.34509
