; generated by Slic3r 1.3.0 on 2021-07-20 at 14:54:51

; external perimeters extrusion width = 0.55mm (5.57mm^3/s)
; perimeters extrusion width = 0.58mm (11.78mm^3/s)
; infill extrusion width = 0.58mm (15.71mm^3/s)
; solid infill extrusion width = 0.58mm (3.93mm^3/s)
; top infill extrusion width = 0.58mm (2.95mm^3/s)

M107
M190 S65 ; set bed temperature and wait for it to be reached
M104 S205 ; set temperature
G28 ; home all axes
G1 Z5 F5000 ; lift nozzle

; Filament gcode

M109 S205 ; set temperature and wait for it to be reached
G21 ; set units to millimeters
G90 ; use absolute coordinates
M82 ; use absolute distances for extrusion
G92 E0
G1 Z0.500 F7800.000
G1 E-2.00000 F2400.00000
G92 E0
G1 X60.276 Y47.929 F7800.000
G1 E2.00000 F2400.00000
G1 F1800
G1 X62.938 Y44.460 E2.81144
G1 X64.210 Y43.188 E3.14533
G1 X64.375 Y43.061 E3.18397
G1 X67.679 Y40.526 E3.95677
G1 X69.237 Y39.626 E4.29068
G1 X73.277 Y37.953 E5.10211
G1 X75.015 Y37.487 E5.43602
G1 X79.350 Y36.916 E6.24745
G1 X81.150 Y36.916 E6.58135
G1 X85.485 Y37.487 E7.39278
G1 X87.223 Y37.953 E7.72669
G1 X91.263 Y39.626 E8.53812
G1 X92.821 Y40.526 E8.87203
G1 X96.290 Y43.188 E9.68346
G1 X96.968 Y43.782 E9.85077
G1 X136.468 Y83.282 E20.21701
G1 X137.062 Y83.960 E20.38433
G1 X139.724 Y87.429 E21.19576
G1 X140.624 Y88.987 E21.52966
G1 X142.297 Y93.027 E22.34110
G1 X142.763 Y94.765 E22.67500
G1 X143.334 Y99.100 E23.48643
G1 X143.334 Y100.900 E23.82034
G1 X142.763 Y105.235 E24.63177
G1 X142.297 Y106.973 E24.96568
G1 X140.624 Y111.013 E25.77711
G1 X139.724 Y112.571 E26.11102
G1 X137.062 Y116.040 E26.92245
G1 X136.468 Y116.718 E27.08976
G1 X96.968 Y156.218 E37.45600
G1 X96.290 Y156.812 E37.62331
G1 X92.821 Y159.474 E38.43474
G1 X91.263 Y160.374 E38.76865
G1 X87.223 Y162.047 E39.58008
G1 X85.485 Y162.513 E39.91399
G1 X81.150 Y163.084 E40.72542
G1 X79.350 Y163.084 E41.05932
G1 X75.015 Y162.513 E41.87076
G1 X73.277 Y162.047 E42.20466
G1 X69.237 Y160.374 E43.01610
G1 X67.679 Y159.474 E43.35000
G1 X64.210 Y156.812 E44.16143
G1 X62.938 Y155.540 E44.49534
G1 X60.276 Y152.071 E45.30677
G1 X59.376 Y150.513 E45.64068
G1 X57.782 Y146.665 E46.41347
G1 X57.703 Y146.473 E46.45211
G1 X57.237 Y144.735 E46.78602
G1 X56.666 Y140.400 E47.59746
G1 X56.607 Y139.500 E47.76476
G1 X56.607 Y60.500 E62.42484
G1 X56.666 Y59.600 E62.59215
G1 X57.237 Y55.265 E63.40358
G1 X57.703 Y53.527 E63.73749
G1 X59.376 Y49.487 E64.54892
G1 X60.238 Y47.994 E64.86891
G1 E62.86891 F2400.00000
G92 E0
G1 X92.259 Y67.495 F7800.000
G1 E2.00000 F2400.00000
G1 F1800
G1 X90.082 Y70.332 E2.66356
G1 X87.202 Y72.542 E3.33715
G1 X83.849 Y73.931 E4.01075
G1 X80.250 Y74.405 E4.68434
G1 X76.651 Y73.931 E5.35794
G1 X73.298 Y72.542 E6.03153
G1 X70.418 Y70.332 E6.70513
G1 X68.208 Y67.452 E7.37872
G1 X66.819 Y64.099 E8.05232
G1 X66.345 Y60.500 E8.72591
G1 X66.819 Y56.901 E9.39951
G1 X68.208 Y53.548 E10.07310
G1 X70.418 Y50.668 E10.74670
G1 X73.298 Y48.458 E11.42029
G1 X76.651 Y47.069 E12.09389
G1 X80.250 Y46.595 E12.76748
G1 X83.849 Y47.069 E13.44108
G1 X87.202 Y48.458 E14.11467
G1 X90.082 Y50.668 E14.78827
G1 X92.292 Y53.548 E15.46186
G1 X93.681 Y56.901 E16.13546
G1 X94.155 Y60.500 E16.80905
G1 X93.681 Y64.099 E17.48265
G1 X92.300 Y67.433 E18.15237
G1 X91.512 Y67.002 F7800.000
G1 F1800
G1 X89.445 Y69.695 E18.78234
G1 X86.752 Y71.762 E19.41232
G1 X83.616 Y73.061 E20.04229
G1 X80.250 Y73.504 E20.67227
G1 X76.884 Y73.061 E21.30225
G1 X73.748 Y71.762 E21.93222
G1 X71.055 Y69.695 E22.56220
G1 X68.988 Y67.002 E23.19218
G1 X67.689 Y63.866 E23.82215
G1 X67.246 Y60.500 E24.45213
G1 X67.689 Y57.134 E25.08211
G1 X68.988 Y53.998 E25.71208
G1 X71.055 Y51.305 E26.34206
G1 X73.748 Y49.238 E26.97203
G1 X76.884 Y47.939 E27.60201
G1 X80.250 Y47.496 E28.23199
G1 X83.616 Y47.939 E28.86196
G1 X86.752 Y49.238 E29.49194
G1 X89.445 Y51.305 E30.12192
G1 X91.512 Y53.998 E30.75189
G1 X92.811 Y57.134 E31.38187
G1 X93.254 Y60.500 E32.01185
G1 X92.811 Y63.866 E32.64182
G1 X91.541 Y66.933 E33.25788
G1 X91.512 Y67.002 F7800.000
G1 E31.25788 F2400.00000
G92 E0
G1 X93.656 Y67.890 F7800.000
G1 E2.00000 F2400.00000
G1 F1800
G1 X93.539 Y68.173 E2.05670
G1 X91.101 Y71.351 E2.80008
G1 X87.923 Y73.789 E3.54346
G1 X84.222 Y75.322 E4.28685
G1 X80.250 Y75.845 E5.03023
G1 X76.278 Y75.322 E5.77361
G1 X72.577 Y73.789 E6.51699
G1 X69.399 Y71.351 E7.26037
G1 X66.961 Y68.173 E8.00375
G1 X65.428 Y64.472 E8.74713
G1 X64.905 Y60.500 E9.49052
G1 X65.428 Y56.528 E10.23390
G1 X66.961 Y52.827 E10.97728
G1 X69.399 Y49.649 E11.72066
G1 X72.577 Y47.211 E12.46404
G1 X76.278 Y45.678 E13.20742
G1 X80.250 Y45.155 E13.95080
G1 X84.222 Y45.678 E14.69419
G1 X87.923 Y47.211 E15.43757
G1 X91.101 Y49.649 E16.18095
G1 X93.539 Y52.827 E16.92433
G1 X95.072 Y56.528 E17.66771
G1 X95.595 Y60.500 E18.41109
G1 X95.072 Y64.472 E19.15447
G1 X93.685 Y67.821 E19.82724
G1 X94.481 Y68.232 F7800.000
G1 F1800
G1 X94.319 Y68.623 E19.90575
G1 X91.737 Y71.987 E20.69275
G1 X88.373 Y74.569 E21.47975
G1 X84.455 Y76.192 E22.26675
G1 X80.250 Y76.746 E23.05375
G1 X76.045 Y76.192 E23.84075
G1 X72.127 Y74.569 E24.62775
G1 X68.763 Y71.987 E25.41475
G1 X66.181 Y68.623 E26.20175
G1 X64.558 Y64.705 E26.98875
G1 X64.004 Y60.500 E27.77575
G1 X64.558 Y56.295 E28.56275
G1 X66.181 Y52.377 E29.34975
G1 X68.763 Y49.013 E30.13675
G1 X72.127 Y46.431 E30.92375
G1 X76.045 Y44.808 E31.71075
G1 X80.250 Y44.254 E32.49775
G1 X84.455 Y44.808 E33.28475
G1 X88.373 Y46.431 E34.07175
G1 X91.737 Y49.013 E34.85875
G1 X94.319 Y52.377 E35.64575
G1 X95.942 Y56.295 E36.43275
G1 X96.496 Y60.500 E37.21975
G1 X95.942 Y64.705 E38.00675
G1 X94.510 Y68.163 E38.70132
G1 X94.065 Y68.306 F7800.000
G1 X92.997 Y67.617 F7800.000
G1 F1800
G1 X92.894 Y67.840 E38.72332
G1 X90.563 Y70.863 E39.06491
G1 X87.562 Y73.165 E39.40344
G1 X84.035 Y74.626 E39.74511
G1 X80.250 Y75.124 E40.08679
G1 X76.500 Y74.631 E40.42532
G1 X72.938 Y73.165 E40.77005
G1 X69.887 Y70.813 E41.11479
G1 X67.585 Y67.812 E41.45332
G1 X66.124 Y64.285 E41.79499
G1 X65.626 Y60.500 E42.13666
G1 X66.119 Y56.750 E42.47519
G1 X67.585 Y53.188 E42.81993
G1 X69.937 Y50.137 E43.16466
G1 X72.938 Y47.835 E43.50319
G1 X76.465 Y46.374 E43.84486
G1 X80.215 Y45.880 E44.18339
G1 X80.414 Y45.897 E44.20129
G1 X84.035 Y46.374 E44.52815
G1 X87.562 Y47.835 E44.86982
G1 X90.613 Y50.187 E45.21455
G1 X92.915 Y53.188 E45.55308
G1 X94.376 Y56.715 E45.89475
G1 X94.870 Y60.535 E46.23949
G1 X94.376 Y64.285 E46.57802
G1 X93.025 Y67.548 E46.89406
G1 E44.89406 F2400.00000
G92 E0
G1 X92.337 Y146.344 F7800.000
G1 E2.00000 F2400.00000
G1 F1800
G1 X92.292 Y146.452 E2.02181
G1 X90.082 Y149.332 E2.69540
G1 X87.202 Y151.542 E3.36900
G1 X83.849 Y152.931 E4.04259
G1 X80.250 Y153.405 E4.71619
G1 X76.651 Y152.931 E5.38978
G1 X73.298 Y151.542 E6.06338
G1 X70.418 Y149.332 E6.73698
G1 X68.208 Y146.452 E7.41057
G1 X66.819 Y143.099 E8.08416
G1 X66.345 Y139.500 E8.75776
G1 X66.819 Y135.901 E9.43136
G1 X68.208 Y132.548 E10.10495
G1 X70.418 Y129.668 E10.77855
G1 X73.298 Y127.458 E11.45214
G1 X76.651 Y126.069 E12.12574
G1 X80.250 Y125.595 E12.79933
G1 X83.849 Y126.069 E13.47293
G1 X87.202 Y127.458 E14.14652
G1 X90.082 Y129.668 E14.82012
G1 X92.292 Y132.548 E15.49371
G1 X93.681 Y135.901 E16.16731
G1 X94.155 Y139.500 E16.84090
G1 X93.681 Y143.099 E17.51450
G1 X92.366 Y146.274 E18.15237
G1 X91.512 Y146.002 F7800.000
G1 F1800
G1 X89.445 Y148.695 E18.78234
G1 X86.752 Y150.762 E19.41232
G1 X83.616 Y152.061 E20.04229
G1 X80.250 Y152.504 E20.67227
G1 X76.884 Y152.061 E21.30225
G1 X73.748 Y150.762 E21.93222
G1 X71.055 Y148.695 E22.56220
G1 X68.988 Y146.002 E23.19218
G1 X67.689 Y142.866 E23.82215
G1 X67.246 Y139.500 E24.45213
G1 X67.689 Y136.134 E25.08211
G1 X68.988 Y132.998 E25.71208
G1 X71.055 Y130.305 E26.34206
G1 X73.748 Y128.238 E26.97203
G1 X76.884 Y126.939 E27.60201
G1 X80.250 Y126.496 E28.23199
G1 X83.616 Y126.939 E28.86196
G1 X86.752 Y128.238 E29.49194
G1 X89.445 Y130.305 E30.12192
G1 X91.512 Y132.998 E30.75189
G1 X92.811 Y136.134 E31.38187
G1 X93.254 Y139.500 E32.01185
G1 X92.811 Y142.866 E32.64182
G1 X91.541 Y145.933 E33.25788
G1 X91.512 Y146.002 F7800.000
G1 E31.25788 F2400.00000
G92 E0
G1 X93.656 Y146.890 F7800.000
G1 E2.00000 F2400.00000
G1 F1800
G1 X93.539 Y147.173 E2.05670
G1 X91.101 Y150.351 E2.80008
G1 X87.923 Y152.789 E3.54346
G1 X84.222 Y154.322 E4.28685
G1 X80.250 Y154.845 E5.03023
G1 X76.278 Y154.322 E5.77361
G1 X72.577 Y152.789 E6.51699
G1 X69.399 Y150.351 E7.26037
G1 X66.961 Y147.173 E8.00375
G1 X65.428 Y143.472 E8.74713
G1 X64.905 Y139.500 E9.49052
G1 X65.428 Y135.528 E10.23390
G1 X66.961 Y131.827 E10.97728
G1 X69.399 Y128.649 E11.72066
G1 X72.577 Y126.211 E12.46404
G1 X76.278 Y124.678 E13.20742
G1 X80.250 Y124.155 E13.95080
G1 X84.222 Y124.678 E14.69419
G1 X87.923 Y126.211 E15.43757
G1 X91.101 Y128.649 E16.18095
G1 X93.539 Y131.827 E16.92433
G1 X95.072 Y135.528 E17.66771
G1 X95.595 Y139.500 E18.41109
G1 X95.072 Y143.472 E19.15447
G1 X93.685 Y146.821 E19.82724
G1 X94.481 Y147.232 F7800.000
G1 F1800
G1 X94.319 Y147.623 E19.90575
G1 X91.737 Y150.987 E20.69275
G1 X88.373 Y153.569 E21.47975
G1 X84.455 Y155.192 E22.26675
G1 X80.250 Y155.746 E23.05375
G1 X76.045 Y155.192 E23.84075
G1 X72.127 Y153.569 E24.62775
G1 X68.763 Y150.987 E25.41475
G1 X66.181 Y147.623 E26.20175
G1 X64.558 Y143.705 E26.98875
G1 X64.004 Y139.500 E27.77575
G1 X64.558 Y135.295 E28.56275
G1 X66.181 Y131.377 E29.34975
G1 X68.763 Y128.013 E30.13675
G1 X72.127 Y125.431 E30.92375
G1 X76.045 Y123.808 E31.71075
G1 X80.250 Y123.254 E32.49775
G1 X84.455 Y123.808 E33.28475
G1 X88.373 Y125.431 E34.07175
G1 X91.737 Y128.013 E34.85875
G1 X94.319 Y131.377 E35.64575
G1 X95.942 Y135.295 E36.43275
G1 X96.496 Y139.500 E37.21975
G1 X95.942 Y143.705 E38.00675
G1 X94.510 Y147.163 E38.70132
G1 X94.065 Y147.306 F7800.000
G1 X92.997 Y146.617 F7800.000
G1 F1800
G1 X92.894 Y146.840 E38.72332
G1 X90.563 Y149.863 E39.06491
G1 X87.562 Y152.165 E39.40344
G1 X84.035 Y153.626 E39.74511
G1 X80.250 Y154.124 E40.08679
G1 X76.500 Y153.631 E40.42532
G1 X72.938 Y152.165 E40.77005
G1 X69.887 Y149.813 E41.11479
G1 X67.585 Y146.812 E41.45332
G1 X66.124 Y143.285 E41.79499
G1 X65.626 Y139.500 E42.13666
G1 X66.119 Y135.750 E42.47519
G1 X67.585 Y132.188 E42.81993
G1 X69.937 Y129.137 E43.16466
G1 X72.938 Y126.835 E43.50319
G1 X76.465 Y125.374 E43.84486
G1 X80.215 Y124.880 E44.18339
G1 X80.414 Y124.897 E44.20129
G1 X84.035 Y125.374 E44.52815
G1 X87.562 Y126.835 E44.86982
G1 X90.613 Y129.187 E45.21455
G1 X92.915 Y132.188 E45.55308
G1 X94.376 Y135.715 E45.89475
G1 X94.870 Y139.535 E46.23949
G1 X94.376 Y143.285 E46.57802
G1 X93.025 Y146.548 E46.89406
G1 Z0.500 F7800.000
G1 E44.89406 F2400.00000
G92 E0
G1 X112.798 Y112.042 F7800.000
G1 E2.00000 F2400.00000
G1 F1800
G1 X109.918 Y109.832 E2.67360
G1 X107.708 Y106.952 E3.34719
G1 X106.319 Y103.599 E4.02079
G1 X105.845 Y100.000 E4.69438
G1 X106.319 Y96.401 E5.36798
G1 X107.708 Y93.048 E6.04157
G1 X109.918 Y90.168 E6.71517
G1 X112.798 Y87.958 E7.38876
G1 X116.151 Y86.569 E8.06236
G1 X119.750 Y86.095 E8.73595
G1 X123.349 Y86.569 E9.40955
G1 X126.702 Y87.958 E10.08314
G1 X129.582 Y90.168 E10.75674
G1 X131.792 Y93.048 E11.43033
G1 X133.181 Y96.401 E12.10393
G1 X133.655 Y100.000 E12.77752
G1 X133.181 Y103.599 E13.45112
G1 X131.792 Y106.952 E14.12471
G1 X129.582 Y109.832 E14.79831
G1 X126.702 Y112.042 E15.47190
G1 X123.349 Y113.431 E16.14550
G1 X119.750 Y113.905 E16.81909
G1 X116.151 Y113.431 E17.49269
G1 X112.867 Y112.071 E18.15237
G1 X113.248 Y111.262 F7800.000
G1 F1800
G1 X110.555 Y109.195 E18.78234
G1 X108.488 Y106.502 E19.41232
G1 X107.189 Y103.366 E20.04229
G1 X106.746 Y100.000 E20.67227
G1 X107.189 Y96.634 E21.30225
G1 X108.488 Y93.498 E21.93222
G1 X110.555 Y90.805 E22.56220
G1 X113.248 Y88.738 E23.19218
G1 X116.384 Y87.439 E23.82215
G1 X119.750 Y86.996 E24.45213
G1 X123.116 Y87.439 E25.08211
G1 X126.252 Y88.738 E25.71208
G1 X128.945 Y90.805 E26.34206
G1 X131.012 Y93.498 E26.97203
G1 X132.311 Y96.634 E27.60201
G1 X132.754 Y100.000 E28.23199
G1 X132.311 Y103.366 E28.86196
G1 X131.012 Y106.502 E29.49194
G1 X128.945 Y109.195 E30.12192
G1 X126.252 Y111.262 E30.75189
G1 X123.116 Y112.561 E31.38187
G1 X119.750 Y113.004 E32.01185
G1 X116.384 Y112.561 E32.64182
G1 X113.317 Y111.291 E33.25788
G1 X113.248 Y111.262 F7800.000
G1 E31.25788 F2400.00000
G92 E0
G1 X112.360 Y113.406 F7800.000
G1 E2.00000 F2400.00000
G1 F1800
G1 X112.077 Y113.289 E2.05670
G1 X108.899 Y110.851 E2.80008
G1 X106.461 Y107.673 E3.54347
G1 X104.928 Y103.972 E4.28685
G1 X104.405 Y100.000 E5.03023
G1 X104.928 Y96.028 E5.77361
G1 X106.461 Y92.327 E6.51699
G1 X108.899 Y89.149 E7.26037
G1 X112.077 Y86.711 E8.00375
G1 X115.778 Y85.178 E8.74714
G1 X119.750 Y84.655 E9.49052
G1 X123.722 Y85.178 E10.23390
G1 X127.423 Y86.711 E10.97728
G1 X130.601 Y89.149 E11.72066
G1 X133.039 Y92.327 E12.46404
G1 X134.572 Y96.028 E13.20742
G1 X135.095 Y100.000 E13.95080
G1 X134.572 Y103.972 E14.69419
G1 X133.039 Y107.673 E15.43757
G1 X130.601 Y110.851 E16.18095
G1 X127.423 Y113.289 E16.92433
G1 X123.722 Y114.822 E17.66771
G1 X119.750 Y115.345 E18.41109
G1 X115.778 Y114.822 E19.15447
G1 X112.429 Y113.435 E19.82724
G1 X112.018 Y114.231 F7800.000
G1 F1800
G1 X111.627 Y114.069 E19.90575
G1 X108.263 Y111.487 E20.69275
G1 X105.681 Y108.123 E21.47975
G1 X104.058 Y104.205 E22.26675
G1 X103.504 Y100.000 E23.05375
G1 X104.058 Y95.795 E23.84075
G1 X105.681 Y91.877 E24.62775
G1 X108.263 Y88.513 E25.41475
G1 X111.627 Y85.931 E26.20175
G1 X115.545 Y84.308 E26.98875
G1 X119.750 Y83.754 E27.77575
G1 X123.955 Y84.308 E28.56275
G1 X127.873 Y85.931 E29.34975
G1 X131.237 Y88.513 E30.13675
G1 X133.819 Y91.877 E30.92375
G1 X135.442 Y95.795 E31.71075
G1 X135.996 Y100.000 E32.49775
G1 X135.442 Y104.205 E33.28475
G1 X133.819 Y108.123 E34.07175
G1 X131.237 Y111.487 E34.85875
G1 X127.873 Y114.069 E35.64575
G1 X123.955 Y115.692 E36.43275
G1 X119.750 Y116.246 E37.21975
G1 X115.545 Y115.692 E38.00675
G1 X112.087 Y114.260 E38.70132
G1 X111.944 Y113.815 F7800.000
G1 X112.633 Y112.747 F7800.000
G1 F1800
G1 X112.410 Y112.644 E38.72332
G1 X109.387 Y110.313 E39.06491
G1 X107.085 Y107.312 E39.40344
G1 X105.624 Y103.785 E39.74511
G1 X105.126 Y100.000 E40.08679
G1 X105.619 Y96.250 E40.42532
G1 X107.085 Y92.688 E40.77005
G1 X109.437 Y89.637 E41.11479
G1 X112.438 Y87.335 E41.45332
G1 X115.965 Y85.874 E41.79499
G1 X119.715 Y85.380 E42.13352
G1 X119.914 Y85.397 E42.15142
G1 X123.535 Y85.874 E42.47827
G1 X127.062 Y87.335 E42.81994
G1 X130.113 Y89.687 E43.16468
G1 X132.415 Y92.688 E43.50321
G1 X133.876 Y96.215 E43.84488
G1 X134.374 Y100.000 E44.18655
G1 X133.881 Y103.750 E44.52508
G1 X132.415 Y107.312 E44.86982
G1 X130.063 Y110.363 E45.21455
G1 X127.062 Y112.665 E45.55308
G1 X123.535 Y114.126 E45.89476
G1 X119.715 Y114.620 E46.23949
G1 X115.965 Y114.126 E46.57802
G1 X112.702 Y112.775 E46.89406
G1 E44.89406 F2400.00000
G92 E0
G1 X73.406 Y112.087 F7800.000
G1 E2.00000 F2400.00000
G1 F1800
G1 X73.298 Y112.042 E2.02181
G1 X70.418 Y109.832 E2.69540
G1 X68.208 Y106.952 E3.36900
G1 X66.819 Y103.599 E4.04259
G1 X66.345 Y100.000 E4.71619
G1 X66.819 Y96.401 E5.38979
G1 X68.208 Y93.048 E6.06338
G1 X70.418 Y90.168 E6.73698
G1 X73.298 Y87.958 E7.41057
G1 X76.651 Y86.569 E8.08417
G1 X80.250 Y86.095 E8.75776
G1 X83.849 Y86.569 E9.43136
G1 X87.202 Y87.958 E10.10495
G1 X90.082 Y90.168 E10.77855
G1 X92.292 Y93.048 E11.45214
G1 X93.681 Y96.401 E12.12574
G1 X94.155 Y100.000 E12.79933
G1 X93.681 Y103.599 E13.47293
G1 X92.292 Y106.952 E14.14652
G1 X90.082 Y109.832 E14.82012
G1 X87.202 Y112.042 E15.49371
G1 X83.849 Y113.431 E16.16731
G1 X80.250 Y113.905 E16.84090
G1 X76.651 Y113.431 E17.51450
G1 X73.476 Y112.116 E18.15237
G1 X73.748 Y111.262 F7800.000
