; generated by Slic3r 1.3.0 on 2021-07-21 at 15:59:18

; external perimeters extrusion width = 0.55mm (5.57mm^3/s)
; perimeters extrusion width = 0.58mm (11.78mm^3/s)
; infill extrusion width = 0.58mm (15.71mm^3/s)
; solid infill extrusion width = 0.58mm (3.93mm^3/s)
; top infill extrusion width = 0.58mm (2.95mm^3/s)

M107
M190 S65 ; set bed temperature and wait for it to be reached
M104 S205 ; set temperature
G28 ; home all axes
G1 Z5 F5000 ; lift nozzle

; Filament gcode

M109 S205 ; set temperature and wait for it to be reached
G21 ; set units to millimeters
G90 ; use absolute coordinates
M82 ; use absolute distances for extrusion
G92 E0
G1 Z0.500 F7800.000
G1 E-2.00000 F2400.00000
G92 E0
G1 X77.879 Y77.090 F7800.000
G1 E2.00000 F2400.00000
G1 F1800
G1 X79.208 Y75.877 E2.33391
G1 X79.543 Y75.644 E2.40960
G1 X84.562 Y72.146 E3.54500
G1 X86.160 Y71.318 E3.87891
G1 X92.298 Y69.099 E5.09000
G1 X94.055 Y68.713 E5.42391
G1 X100.558 Y68.158 E6.63500
G1 X102.355 Y68.241 E6.96890
G1 X108.780 Y69.388 E8.17999
G1 X110.495 Y69.933 E8.51390
G1 X116.404 Y72.703 E9.72499
G1 X117.919 Y73.673 E10.05890
G1 X122.910 Y77.879 E11.26999
G1 X124.123 Y79.208 E11.60390
G1 X127.855 Y84.562 E12.81499
G1 X128.682 Y86.160 E13.14890
G1 X130.901 Y92.298 E14.35999
G1 X131.287 Y94.055 E14.69390
G1 X131.842 Y100.558 E15.90499
G1 X131.759 Y102.355 E16.23889
G1 X130.612 Y108.780 E17.44998
G1 X130.067 Y110.495 E17.78389
G1 X127.297 Y116.404 E18.99498
G1 X126.327 Y117.919 E19.32889
G1 X122.121 Y122.910 E20.53998
G1 X120.792 Y124.123 E20.87389
G1 X115.438 Y127.854 E22.08498
G1 X113.840 Y128.682 E22.41889
G1 X107.702 Y130.901 E23.62998
G1 X105.945 Y131.287 E23.96389
G1 X99.442 Y131.842 E25.17498
G1 X97.645 Y131.759 E25.50888
G1 X97.243 Y131.688 E25.58458
G1 X91.220 Y130.612 E26.71998
G1 X89.505 Y130.067 E27.05388
G1 X83.596 Y127.297 E28.26497
G1 X82.081 Y126.327 E28.59888
G1 X77.090 Y122.121 E29.80997
G1 X75.877 Y120.792 E30.14388
G1 X72.379 Y115.772 E31.27928
G1 X72.145 Y115.438 E31.35498
G1 X71.318 Y113.840 E31.68888
G1 X69.099 Y107.702 E32.89997
G1 X68.713 Y105.945 E33.23388
G1 X68.158 Y99.442 E34.44498
G1 X68.241 Y97.645 E34.77888
G1 X69.316 Y91.622 E35.91427
G1 X69.388 Y91.220 E35.98997
G1 X69.933 Y89.505 E36.32387
G1 X72.703 Y83.596 E37.53497
G1 X73.673 Y82.081 E37.86887
G1 X77.831 Y77.148 E39.06605
G1 E37.06605 F2400.00000
G92 E0
G1 X105.518 Y122.814 F7800.000
G1 E2.00000 F2400.00000
G1 F1800
G1 X98.427 Y123.419 E3.32077
G1 X98.848 Y114.221 E5.02937
G1 X103.545 Y113.820 E5.90411
G1 X105.502 Y122.740 E7.59879
G1 X105.595 Y123.308 F7800.000
G1 E5.59879 F2400.00000
G92 E0
G1 X110.347 Y121.068 F7800.000
G1 E2.00000 F2400.00000
G1 F1800
G1 X106.113 Y112.892 E3.70860
G1 X109.980 Y110.196 E4.58334
G1 X116.186 Y116.998 E6.29194
G1 X110.408 Y121.025 E7.59879
G1 X110.018 Y121.445 F7800.000
G1 E5.59879 F2400.00000
G92 E0
G1 X119.495 Y113.072 F7800.000
G1 E2.00000 F2400.00000
G1 F1800
G1 X111.740 Y108.108 E3.70860
G1 X113.741 Y103.840 E4.58334
G1 X122.516 Y106.628 E6.29194
G1 X119.526 Y113.004 E7.59879
G1 X119.398 Y113.562 F7800.000
G1 E5.59879 F2400.00000
G92 E0
G1 X112.892 Y93.887 F7800.000
G1 E2.00000 F2400.00000
G1 F1800
G1 X110.196 Y90.020 E2.87473
G1 X116.998 Y83.814 E4.58334
G1 X121.068 Y89.653 E5.90410
G1 X112.958 Y93.853 E7.59879
G1 X112.544 Y94.246 F7800.000
G1 E5.59879 F2400.00000
G92 E0
G1 X113.820 Y96.455 F7800.000
G1 E2.00000 F2400.00000
G1 F1800
G1 X122.814 Y94.482 E3.70860
G1 X123.419 Y101.573 E5.02937
G1 X114.221 Y101.152 E6.73797
G1 X113.827 Y96.530 E7.59879
G1 X113.579 Y96.017 F7800.000
G1 E5.59879 F2400.00000
G92 E0
G1 X108.108 Y88.260 F7800.000
G1 E2.00000 F2400.00000
G1 F1800
G1 X103.840 Y86.259 E2.87473
G1 X106.628 Y77.484 E4.58333
G1 X113.072 Y80.505 E5.90410
G1 X108.149 Y88.197 E7.59879
G1 X107.986 Y88.745 F7800.000
G1 E5.59879 F2400.00000
G92 E0
G1 X96.840 Y119.034 F7800.000
G1 E2.00000 F2400.00000
G1 F1800
G1 X96.692 Y122.266 E2.60038
G1 X95.399 Y122.035 E2.84428
G1 X96.378 Y118.951 E3.44466
G1 X96.767 Y119.021 E3.51791
G1 E1.51791 F2400.00000
G92 E0
G1 X87.747 Y114.904 F7800.000
G1 E2.00000 F2400.00000
G1 F1800
G1 X86.003 Y117.629 E2.60039
G1 X84.998 Y116.782 E2.84428
G1 X87.388 Y114.601 E3.44467
G1 X87.689 Y114.856 E3.51792
G1 E1.51792 F2400.00000
G92 E0
G1 X81.936 Y106.781 F7800.000
G1 E2.00000 F2400.00000
G1 F1800
G1 X79.063 Y108.269 E2.60038
G1 X78.616 Y107.032 E2.84428
G1 X81.777 Y106.339 E3.44466
G1 X81.911 Y106.710 E3.51791
G1 E1.51791 F2400.00000
G92 E0
G1 X80.966 Y96.840 F7800.000
G1 E2.00000 F2400.00000
G1 F1800
G1 X77.734 Y96.692 E2.60038
G1 X77.965 Y95.399 E2.84428
G1 X81.049 Y96.378 E3.44466
G1 X80.979 Y96.767 E3.51791
G1 E1.51791 F2400.00000
G92 E0
G1 X85.096 Y87.747 F7800.000
G1 E2.00000 F2400.00000
G1 F1800
G1 X82.371 Y86.003 E2.60038
G1 X83.218 Y84.998 E2.84428
G1 X85.399 Y87.388 E3.44466
G1 X85.144 Y87.689 E3.51791
G1 E1.51791 F2400.00000
G92 E0
G1 X93.219 Y81.936 F7800.000
G1 E2.00000 F2400.00000
G1 F1800
G1 X91.731 Y79.063 E2.60038
G1 X92.968 Y78.616 E2.84428
G1 X93.661 Y81.777 E3.44466
G1 X93.290 Y81.911 E3.51791
G1 E1.51791 F2400.00000
G92 E0
G1 X103.160 Y80.966 F7800.000
G1 E2.00000 F2400.00000
G1 F1800
G1 X103.308 Y77.734 E2.60038
G1 X104.601 Y77.965 E2.84428
G1 X103.622 Y81.049 E3.44466
G1 X103.233 Y80.979 E3.51791
G1 E1.51791 F2400.00000
G92 E0
G1 X112.253 Y85.096 F7800.000
G1 E2.00000 F2400.00000
G1 F1800
G1 X113.997 Y82.371 E2.60039
G1 X115.003 Y83.218 E2.84428
G1 X112.612 Y85.399 E3.44467
G1 X112.311 Y85.144 E3.51792
G1 E1.51792 F2400.00000
G92 E0
G1 X105.789 Y93.195 F7800.000
G1 E2.00000 F2400.00000
G1 F1800
G1 X106.491 Y93.861 E2.17961
G1 X106.888 Y94.328 E2.29334
G1 X107.118 Y94.598 E2.35922
G1 X107.661 Y95.399 E2.53883
G1 X108.114 Y96.255 E2.71843
G1 X108.473 Y97.154 E2.89804
G1 X108.731 Y98.086 E3.07765
G1 X108.888 Y99.041 E3.25726
G1 X108.940 Y100.008 E3.43687
G1 X108.888 Y100.974 E3.61647
G1 X108.731 Y101.929 E3.79608
G1 X108.473 Y102.862 E3.97569
G1 X108.114 Y103.761 E4.15530
G1 X107.661 Y104.616 E4.33491
G1 X107.118 Y105.417 E4.51451
G1 X106.491 Y106.155 E4.69412
G1 X105.789 Y106.821 E4.87373
G1 X105.018 Y107.406 E5.05334
G1 X104.189 Y107.905 E5.23294
G1 X103.310 Y108.312 E5.41255
G1 X102.393 Y108.621 E5.59216
G1 X101.448 Y108.829 E5.77177
G1 X100.486 Y108.933 E5.95138
G1 X99.518 Y108.933 E6.13099
G1 X98.556 Y108.829 E6.31059
G1 X97.610 Y108.621 E6.49020
G1 X96.693 Y108.312 E6.66981
G1 X95.815 Y107.905 E6.84941
G1 X95.365 Y107.635 E6.94677
G1 X94.985 Y107.406 E7.02903
G1 X94.215 Y106.821 E7.20863
G1 X93.512 Y106.155 E7.38824
G1 X93.057 Y105.619 E7.51877
G1 X92.886 Y105.417 E7.56785
G1 X92.342 Y104.616 E7.74746
G1 X91.889 Y103.761 E7.92706
G1 X91.531 Y102.862 E8.10667
G1 X91.272 Y101.929 E8.28628
G1 X91.115 Y100.974 E8.46589
G1 X91.063 Y100.008 E8.64549
G1 X91.101 Y99.305 E8.77603
G1 X91.115 Y99.041 E8.82511
G1 X91.272 Y98.086 E9.00471
G1 X91.531 Y97.154 E9.18432
G1 X91.889 Y96.255 E9.36393
G1 X92.342 Y95.399 E9.54353
G1 X92.886 Y94.598 E9.72314
G1 X93.512 Y93.861 E9.90275
G1 X94.215 Y93.195 E10.08236
G1 X94.985 Y92.609 E10.26197
G1 X95.815 Y92.110 E10.44158
G1 X96.693 Y91.704 E10.62118
G1 X97.610 Y91.395 E10.80079
G1 X98.556 Y91.187 E10.98040
G1 X99.518 Y91.082 E11.16001
G1 X100.486 Y91.082 E11.33962
G1 X101.448 Y91.187 E11.51922
G1 X102.393 Y91.395 E11.69883
G1 X103.310 Y91.704 E11.87844
G1 X104.189 Y92.110 E12.05805
G1 X105.018 Y92.609 E12.23765
G1 X105.729 Y93.150 E12.40334
G1 X105.210 Y93.876 F7800.000
G1 F1800
G1 X105.842 Y94.475 E12.56499
G1 X106.208 Y94.906 E12.66974
G1 X106.406 Y95.139 E12.72663
G1 X106.895 Y95.860 E12.88828
G1 X107.303 Y96.630 E13.04992
G1 X107.625 Y97.439 E13.21157
G1 X107.858 Y98.278 E13.37321
G1 X107.999 Y99.138 E13.53486
G1 X108.046 Y100.008 E13.69650
G1 X107.999 Y100.878 E13.85814
G1 X107.858 Y101.737 E14.01979
G1 X107.625 Y102.577 E14.18143
G1 X107.303 Y103.386 E14.34308
G1 X106.895 Y104.155 E14.50472
G1 X106.406 Y104.876 E14.66637
G1 X105.842 Y105.540 E14.82801
G1 X105.210 Y106.139 E14.98966
G1 X104.516 Y106.666 E15.15130
G1 X103.770 Y107.115 E15.31294
G1 X102.979 Y107.481 E15.47459
G1 X102.154 Y107.759 E15.63623
G1 X101.303 Y107.947 E15.79788
G1 X100.437 Y108.041 E15.95952
G1 X99.566 Y108.041 E16.12117
G1 X98.700 Y107.947 E16.28281
G1 X97.850 Y107.759 E16.44446
G1 X97.024 Y107.481 E16.60610
G1 X96.233 Y107.115 E16.76774
G1 X95.825 Y106.870 E16.85612
G1 X95.487 Y106.666 E16.92939
G1 X94.794 Y106.139 E17.09103
G1 X94.161 Y105.540 E17.25268
G1 X93.737 Y105.041 E17.37423
G1 X93.597 Y104.876 E17.41432
G1 X93.109 Y104.155 E17.57597
G1 X92.701 Y103.386 E17.73761
G1 X92.378 Y102.577 E17.89926
G1 X92.145 Y101.737 E18.06090
G1 X92.004 Y100.878 E18.22255
G1 X91.957 Y100.008 E18.38419
G1 X91.992 Y99.354 E18.50574
G1 X92.004 Y99.138 E18.54584
G1 X92.145 Y98.278 E18.70748
G1 X92.378 Y97.439 E18.86912
G1 X92.701 Y96.630 E19.03077
G1 X93.109 Y95.860 E19.19241
G1 X93.597 Y95.139 E19.35406
G1 X94.161 Y94.475 E19.51570
G1 X94.794 Y93.876 E19.67735
G1 X95.487 Y93.349 E19.83899
G1 X96.233 Y92.900 E20.00063
G1 X97.024 Y92.534 E20.16228
G1 X97.850 Y92.256 E20.32392
G1 X98.700 Y92.069 E20.48557
G1 X99.566 Y91.975 E20.64721
G1 X100.437 Y91.975 E20.80886
G1 X101.303 Y92.069 E20.97050
G1 X102.154 Y92.256 E21.13215
G1 X102.979 Y92.534 E21.29379
G1 X103.770 Y92.900 E21.45544
G1 X104.516 Y93.349 E21.61708
G1 X105.150 Y93.831 E21.76481
G1 X104.631 Y94.558 F7800.000
G1 F1800
G1 X105.193 Y95.090 E21.90849
G1 X105.527 Y95.484 E22.00425
G1 X105.694 Y95.680 E22.05217
G1 X106.129 Y96.321 E22.19585
G1 X106.492 Y97.005 E22.33953
G1 X106.778 Y97.725 E22.48321
G1 X106.985 Y98.471 E22.62689
G1 X107.111 Y99.235 E22.77057
G1 X107.152 Y100.008 E22.91425
G1 X107.111 Y100.781 E23.05793
G1 X106.985 Y101.545 E23.20162
G1 X106.778 Y102.291 E23.34530
G1 X106.492 Y103.010 E23.48898
G1 X106.129 Y103.694 E23.63266
G1 X105.694 Y104.335 E23.77634
G1 X105.193 Y104.925 E23.92002
G1 X104.631 Y105.458 E24.06370
G1 X104.015 Y105.926 E24.20738
G1 X103.351 Y106.326 E24.35106
G1 X102.648 Y106.651 E24.49474
G1 X101.915 Y106.898 E24.63842
G1 X101.159 Y107.064 E24.78211
G1 X100.389 Y107.148 E24.92579
G1 X99.615 Y107.148 E25.06947
G1 X98.845 Y107.064 E25.21315
G1 X98.089 Y106.898 E25.35683
G1 X97.355 Y106.651 E25.50051
G1 X96.652 Y106.326 E25.64419
G1 X96.286 Y106.105 E25.72358
G1 X95.989 Y105.926 E25.78787
G1 X95.372 Y105.458 E25.93155
G1 X94.810 Y104.925 E26.07523
G1 X94.418 Y104.463 E26.18780
G1 X94.309 Y104.335 E26.21892
G1 X93.875 Y103.694 E26.36260
G1 X93.512 Y103.010 E26.50628
G1 X93.225 Y102.291 E26.64996
G1 X93.018 Y101.545 E26.79364
G1 X92.893 Y100.781 E26.93732
G1 X92.851 Y100.008 E27.08100
G1 X92.884 Y99.402 E27.19357
G1 X92.893 Y99.235 E27.22468
G1 X93.018 Y98.471 E27.36836
G1 X93.225 Y97.725 E27.51204
G1 X93.512 Y97.005 E27.65572
G1 X93.875 Y96.321 E27.79941
G1 X94.309 Y95.680 E27.94309
G1 X94.810 Y95.090 E28.08677
G1 X95.372 Y94.558 E28.23045
G1 X95.989 Y94.089 E28.37413
G1 X96.652 Y93.690 E28.51781
G1 X97.355 Y93.365 E28.66149
G1 X98.089 Y93.118 E28.80517
G1 X98.845 Y92.951 E28.94885
G1 X99.615 Y92.868 E29.09253
G1 X100.389 Y92.868 E29.23622
G1 X101.159 Y92.951 E29.37990
G1 X101.915 Y93.118 E29.52358
G1 X102.648 Y93.365 E29.66726
G1 X103.351 Y93.690 E29.81094
G1 X104.015 Y94.089 E29.95462
G1 X104.571 Y94.512 E30.08438
G1 X104.631 Y94.558 F7800.000
G1 E28.08438 F2400.00000
G92 E0
G1 X109.041 Y91.484 F7800.000
G1 E2.00000 F2400.00000
G1 F1800
G1 X111.962 Y95.675 E2.94800
G1 X112.522 Y102.236 E4.16983
G1 X109.726 Y108.197 E5.39165
G1 X104.325 Y111.962 E6.61349
G1 X97.764 Y112.522 E7.83531
G1 X91.803 Y109.726 E9.05713
G1 X88.038 Y104.325 E10.27896
G1 X87.478 Y97.764 E11.50079
G1 X90.274 Y91.803 E12.72261
G1 X95.675 Y88.038 E13.94444
G1 X102.236 Y87.478 E15.16627
G1 X108.197 Y90.274 E16.38809
G1 X108.998 Y91.423 E16.64799
G1 E14.64799 F2400.00000
G92 E0
G1 X118.064 Y93.219 F7800.000
G1 E2.00000 F2400.00000
G1 F1800
G1 X120.937 Y91.731 E2.60038
G1 X121.384 Y92.968 E2.84428
G1 X118.223 Y93.661 E3.44466
G1 X118.089 Y93.290 E3.51791
G1 E1.51791 F2400.00000
G92 E0
G1 X119.034 Y103.160 F7800.000
G1 E2.00000 F2400.00000
G1 F1800
G1 X122.266 Y103.308 E2.60038
G1 X122.035 Y104.601 E2.84428
G1 X118.951 Y103.622 E3.44466
G1 X119.021 Y103.233 E3.51791
G1 E1.51791 F2400.00000
G92 E0
G1 X114.904 Y112.253 F7800.000
G1 E2.00000 F2400.00000
G1 F1800
G1 X117.629 Y113.997 E2.60039
G1 X116.782 Y115.003 E2.84429
G1 X114.601 Y112.612 E3.44467
G1 X114.856 Y112.311 E3.51792
G1 E1.51792 F2400.00000
G92 E0
G1 X106.781 Y118.064 F7800.000
G1 E2.00000 F2400.00000
G1 F1800
G1 X108.269 Y120.937 E2.60038
G1 X107.032 Y121.384 E2.84428
G1 X106.339 Y118.223 E3.44466
G1 X106.710 Y118.089 E3.51791
G1 E1.51791 F2400.00000
G92 E0
G1 X104.960 Y112.607 F7800.000
G1 E2.00000 F2400.00000
G1 F1800
G1 X109.529 Y121.430 E3.84382
G1 X106.379 Y122.569 E4.46551
G1 X104.249 Y112.864 E6.30933
G1 X97.992 Y113.398 E7.47462
G1 X97.538 Y123.324 E9.31845
G1 X94.240 Y122.735 E9.94014
G1 X97.248 Y113.265 E11.78396
G1 X91.562 Y110.599 E12.94925
G1 X86.206 Y118.968 E14.79307
G1 X83.644 Y116.809 E15.41476
G1 X90.984 Y110.112 E17.25859
G1 X87.393 Y104.960 E18.42388
G1 X78.570 Y109.529 E20.26770
G1 X77.431 Y106.379 E20.88939
G1 X87.136 Y104.249 E22.73321
G1 X86.602 Y97.992 E23.89850
G1 X76.676 Y97.538 E25.74232
G1 X77.265 Y94.240 E26.36402
G1 X86.735 Y97.248 E28.20784
G1 X89.401 Y91.562 E29.37313
G1 X81.032 Y86.206 E31.21695
G1 X83.191 Y83.644 E31.83864
G1 X89.888 Y90.984 E33.68246
G1 X95.040 Y87.393 E34.84776
G1 X90.471 Y78.570 E36.69158
G1 X93.621 Y77.431 E37.31327
G1 X95.751 Y87.136 E39.15709
G1 X102.008 Y86.602 E40.32238
G1 X102.462 Y76.676 E42.16620
G1 X105.760 Y77.265 E42.78790
G1 X102.752 Y86.735 E44.63172
G1 X108.438 Y89.401 E45.79701
G1 X113.794 Y81.032 E47.64083
G1 X116.356 Y83.191 E48.26252
G1 X109.016 Y89.888 E50.10634
G1 X112.607 Y95.040 E51.27163
G1 X121.430 Y90.471 E53.11545
G1 X122.569 Y93.621 E53.73715
G1 X112.864 Y95.751 E55.58097
G1 X113.398 Y102.008 E56.74626
G1 X123.324 Y102.462 E58.59008
G1 X122.735 Y105.760 E59.21177
G1 X113.265 Y102.752 E61.05559
G1 X110.599 Y108.438 E62.22088
G1 X118.968 Y113.794 E64.06471
G1 X116.809 Y116.356 E64.68640
G1 X110.112 Y109.016 E66.53022
G1 X105.022 Y112.564 E67.68159
G1 E65.68159 F2400.00000
G92 E0
G1 X101.152 Y85.779 F7800.000
G1 E2.00000 F2400.00000
G1 F1800
G1 X96.455 Y86.180 E2.87473
G1 X94.482 Y77.186 E4.58334
G1 X101.573 Y76.581 E5.90411
G1 X101.155 Y85.704 E7.59879
G1 X101.190 Y86.278 F7800.000
G1 E5.59879 F2400.00000
G92 E0
G1 X93.887 Y87.108 F7800.000
G1 E2.00000 F2400.00000
G1 F1800
G1 X90.020 Y89.804 E2.87473
G1 X83.814 Y83.002 E4.58334
G1 X89.653 Y78.932 E5.90411
G1 X93.853 Y87.042 E7.59879
G1 X94.169 Y87.521 F7800.000
G1 E5.59879 F2400.00000
G92 E0
G1 X88.260 Y91.892 F7800.000
G1 E2.00000 F2400.00000
G1 F1800
G1 X86.259 Y96.160 E2.87473
G1 X77.484 Y93.372 E4.58333
G1 X80.505 Y86.928 E5.90410
G1 X88.197 Y91.851 E7.59879
G1 X88.742 Y92.026 F7800.000
G1 E5.59879 F2400.00000
G92 E0
G1 X85.779 Y98.848 F7800.000
G1 E2.00000 F2400.00000
G1 F1800
G1 X86.180 Y103.545 E2.87473
G1 X77.186 Y105.518 E4.58334
G1 X76.581 Y98.427 E5.90411
G1 X85.704 Y98.845 E7.59879
G1 X86.263 Y98.724 F7800.000
G1 E5.59879 F2400.00000
G92 E0
G1 X87.108 Y106.113 F7800.000
G1 E2.00000 F2400.00000
G1 F1800
G1 X89.804 Y109.980 E2.87473
G1 X83.002 Y116.186 E4.58333
G1 X78.932 Y110.347 E5.90410
G1 X87.042 Y106.147 E7.59879
G1 X87.531 Y105.845 F7800.000
G1 E5.59879 F2400.00000
G92 E0
G1 X91.892 Y111.740 F7800.000
G1 E2.00000 F2400.00000
G1 F1800
G1 X96.160 Y113.741 E2.87473
G1 X93.372 Y122.516 E4.58333
G1 X86.928 Y119.495 E5.90410
G1 X91.851 Y111.803 E7.59879
