; generated by Slic3r 1.3.0 on 2021-07-21 at 09:31:06

; external perimeters extrusion width = 0.55mm (5.57mm^3/s)
; perimeters extrusion width = 0.58mm (11.78mm^3/s)
; infill extrusion width = 0.58mm (15.71mm^3/s)
; solid infill extrusion width = 0.58mm (3.93mm^3/s)
; top infill extrusion width = 0.58mm (2.95mm^3/s)

M107
M190 S65 ; set bed temperature and wait for it to be reached
M104 S205 ; set temperature
G28 ; home all axes
G1 Z5 F5000 ; lift nozzle

; Filament gcode

M109 S205 ; set temperature and wait for it to be reached
G21 ; set units to millimeters
G90 ; use absolute coordinates
M82 ; use absolute distances for extrusion
G92 E0
G1 Z0.500 F7800.000
G1 E-2.00000 F2400.00000
G92 E0
G1 X87.637 Y87.775 F7800.000
G1 E2.00000 F2400.00000
G1 F1800
G1 X88.462 Y86.993 E2.21100
G1 X89.031 Y86.510 E2.34947
G1 X89.936 Y85.822 E2.56045
G1 X90.554 Y85.403 E2.69895
G1 X91.528 Y84.817 E2.90993
G1 X92.188 Y84.467 E3.04842
G1 X93.219 Y83.990 E3.25940
G1 X93.913 Y83.714 E3.39790
G1 X94.990 Y83.351 E3.60888
G1 X95.709 Y83.151 E3.74737
G1 X96.769 Y82.918 E3.94876
G1 X97.556 Y82.786 E4.09684
G1 X98.686 Y82.663 E4.30783
G1 X99.432 Y82.623 E4.44631
G1 X100.568 Y82.623 E4.65729
G1 X101.314 Y82.663 E4.79578
G1 X102.444 Y82.786 E5.00677
G1 X103.180 Y82.907 E5.14526
G1 X104.291 Y83.151 E5.35624
G1 X105.010 Y83.351 E5.49473
G1 X106.087 Y83.714 E5.70574
G1 X106.781 Y83.990 E5.84421
G1 X107.812 Y84.467 E6.05518
G1 X108.472 Y84.817 E6.19368
G1 X109.446 Y85.403 E6.40467
G1 X110.064 Y85.822 E6.54316
G1 X110.969 Y86.510 E6.75414
G1 X111.538 Y86.993 E6.89263
G1 X112.363 Y87.775 E7.10361
G1 X112.876 Y88.317 E7.24211
G1 X113.612 Y89.183 E7.45309
G1 X114.064 Y89.778 E7.59158
G1 X114.702 Y90.719 E7.80259
G1 X115.087 Y91.358 E7.94106
G1 X115.619 Y92.363 E8.15203
G1 X115.933 Y93.040 E8.29053
G1 X116.354 Y94.096 E8.50151
G1 X116.592 Y94.803 E8.64000
G1 X116.896 Y95.899 E8.85101
G1 X117.056 Y96.628 E8.98948
G1 X117.240 Y97.750 E9.20046
G1 X117.321 Y98.492 E9.33895
G1 X117.383 Y99.627 E9.54997
G1 X117.383 Y100.373 E9.68843
G1 X117.321 Y101.508 E9.89941
G1 X117.240 Y102.250 E10.03790
G1 X117.056 Y103.372 E10.24888
G1 X116.896 Y104.101 E10.38738
G1 X116.592 Y105.197 E10.59835
G1 X116.354 Y105.904 E10.73685
G1 X115.933 Y106.960 E10.94783
G1 X115.619 Y107.637 E11.08632
G1 X115.087 Y108.642 E11.29734
G1 X114.702 Y109.281 E11.43580
G1 X114.093 Y110.180 E11.63721
G1 X113.612 Y110.817 E11.78526
G1 X112.876 Y111.683 E11.99624
G1 X112.363 Y112.225 E12.13474
G1 X111.538 Y113.007 E12.34573
G1 X110.969 Y113.490 E12.48421
G1 X110.064 Y114.178 E12.69519
G1 X109.446 Y114.597 E12.83368
G1 X108.472 Y115.183 E13.04466
G1 X107.812 Y115.533 E13.18317
G1 X106.781 Y116.010 E13.39414
G1 X106.087 Y116.286 E13.53263
G1 X105.010 Y116.649 E13.74363
G1 X104.291 Y116.849 E13.88211
G1 X103.231 Y117.082 E14.08351
G1 X102.444 Y117.214 E14.23157
G1 X101.314 Y117.337 E14.44255
G1 X100.568 Y117.377 E14.58105
G1 X99.432 Y117.377 E14.79202
G1 X98.686 Y117.337 E14.93052
G1 X97.556 Y117.214 E15.14151
G1 X96.820 Y117.093 E15.28000
G1 X95.709 Y116.849 E15.49097
G1 X94.990 Y116.649 E15.62947
G1 X93.913 Y116.286 E15.84045
G1 X93.219 Y116.010 E15.97894
G1 X92.187 Y115.532 E16.18995
G1 X91.528 Y115.183 E16.32842
G1 X90.554 Y114.597 E16.53942
G1 X89.936 Y114.178 E16.67790
G1 X89.031 Y113.490 E16.88889
G1 X88.462 Y113.007 E17.02737
G1 X87.637 Y112.225 E17.23835
G1 X87.124 Y111.683 E17.37684
G1 X86.388 Y110.817 E17.58783
G1 X85.936 Y110.222 E17.72631
G1 X85.327 Y109.324 E17.92772
G1 X84.913 Y108.642 E18.07578
G1 X84.381 Y107.637 E18.28677
G1 X84.067 Y106.960 E18.42525
G1 X83.646 Y105.904 E18.63625
G1 X83.408 Y105.197 E18.77473
G1 X83.104 Y104.101 E18.98573
G1 X82.944 Y103.372 E19.12420
G1 X82.760 Y102.250 E19.33520
G1 X82.679 Y101.508 E19.47368
G1 X82.617 Y100.373 E19.68468
G1 X82.617 Y99.627 E19.82315
G1 X82.679 Y98.491 E20.03416
G1 X82.760 Y97.750 E20.17262
G1 X82.935 Y96.679 E20.37401
G1 X83.104 Y95.899 E20.52209
G1 X83.408 Y94.803 E20.73307
G1 X83.646 Y94.096 E20.87156
G1 X84.067 Y93.040 E21.08254
G1 X84.381 Y92.363 E21.22104
G1 X84.913 Y91.358 E21.43201
G1 X85.298 Y90.719 E21.57051
G1 X85.936 Y89.778 E21.78149
G1 X86.388 Y89.183 E21.91999
G1 X87.124 Y88.317 E22.13096
G1 X87.585 Y87.830 E22.25554
G1 E20.25554 F2400.00000
G92 E0
G1 X106.518 Y106.174 F7800.000
G1 E2.00000 F2400.00000
G1 F1800
G1 X105.812 Y106.843 E2.18039
G1 X105.038 Y107.431 E2.36078
G1 X104.205 Y107.932 E2.54118
G1 X103.323 Y108.340 E2.72157
G1 X102.402 Y108.651 E2.90196
G1 X101.452 Y108.859 E3.08235
G1 X100.486 Y108.965 E3.26274
G1 X99.514 Y108.965 E3.44313
G1 X98.548 Y108.859 E3.62352
G1 X97.598 Y108.651 E3.80392
G1 X96.677 Y108.340 E3.98431
G1 X95.795 Y107.932 E4.16470
G1 X94.962 Y107.431 E4.34509
G1 X94.188 Y106.843 E4.52548
G1 X93.482 Y106.174 E4.70587
G1 X92.853 Y105.433 E4.88627
G1 X92.307 Y104.629 E5.06666
G1 X91.852 Y103.770 E5.24705
G1 X91.492 Y102.867 E5.42744
G1 X91.232 Y101.930 E5.60783
G1 X91.075 Y100.971 E5.78822
G1 X91.051 Y100.525 E5.87110
G1 X91.022 Y100.000 E5.96862
G1 X91.075 Y99.029 E6.14901
G1 X91.232 Y98.070 E6.32940
G1 X91.492 Y97.133 E6.50979
G1 X91.852 Y96.230 E6.69018
G1 X92.307 Y95.371 E6.87057
G1 X92.853 Y94.567 E7.05096
G1 X93.482 Y93.826 E7.23136
G1 X94.188 Y93.157 E7.41175
G1 X94.962 Y92.569 E7.59214
G1 X95.795 Y92.068 E7.77253
G1 X96.677 Y91.660 E7.95292
G1 X97.598 Y91.349 E8.13332
G1 X98.548 Y91.141 E8.31371
G1 X99.514 Y91.035 E8.49410
G1 X100.486 Y91.035 E8.67449
G1 X101.452 Y91.141 E8.85488
G1 X102.402 Y91.349 E9.03527
G1 X103.323 Y91.660 E9.21566
G1 X104.205 Y92.068 E9.39606
G1 X105.038 Y92.569 E9.57645
G1 X105.812 Y93.157 E9.75684
G1 X106.518 Y93.826 E9.93723
G1 X107.147 Y94.567 E10.11762
G1 X107.693 Y95.371 E10.29801
G1 X108.148 Y96.230 E10.47841
G1 X108.508 Y97.133 E10.65880
G1 X108.768 Y98.070 E10.83919
G1 X108.925 Y99.029 E11.01958
G1 X108.978 Y100.000 E11.19997
G1 X108.925 Y100.971 E11.38036
G1 X108.768 Y101.930 E11.56076
G1 X108.508 Y102.867 E11.74115
G1 X108.148 Y103.770 E11.92154
G1 X107.693 Y104.629 E12.10193
G1 X107.147 Y105.433 E12.28232
G1 X106.566 Y106.117 E12.44880
G1 X106.518 Y106.174 F7800.000
G1 X107.219 Y106.915 F7800.000
G1 F1800
G1 X106.473 Y107.621 E12.63945
G1 X105.611 Y108.276 E12.84037
G1 X104.684 Y108.834 E13.04128
G1 X103.701 Y109.289 E13.24220
G1 X102.675 Y109.635 E13.44312
G1 X101.667 Y109.857 E13.63466
G1 X100.540 Y109.985 E13.84512
G1 X99.459 Y109.985 E14.04582
G1 X98.382 Y109.868 E14.24673
G1 X97.325 Y109.635 E14.44765
G1 X96.299 Y109.289 E14.64857
G1 X95.316 Y108.834 E14.84948
G1 X94.389 Y108.276 E15.05040
G1 X93.527 Y107.621 E15.25132
G1 X92.741 Y106.876 E15.45223
G1 X92.040 Y106.051 E15.65315
G1 X91.432 Y105.155 E15.85407
G1 X90.925 Y104.199 E16.05499
G1 X90.524 Y103.193 E16.25590
G1 X90.248 Y102.198 E16.44745
G1 X90.059 Y101.080 E16.65790
G1 X90.001 Y100.000 E16.85860
G1 X90.059 Y98.919 E17.05952
G1 X90.235 Y97.850 E17.26043
G1 X90.524 Y96.807 E17.46135
G1 X90.925 Y95.801 E17.66227
G1 X91.432 Y94.845 E17.86318
G1 X92.040 Y93.949 E18.06410
G1 X92.741 Y93.124 E18.26502
G1 X93.527 Y92.379 E18.46594
G1 X94.389 Y91.724 E18.66685
G1 X95.316 Y91.166 E18.86777
G1 X96.299 Y90.711 E19.06869
G1 X97.325 Y90.365 E19.26960
G1 X98.382 Y90.132 E19.47052
G1 X99.459 Y90.015 E19.67144
G1 X100.541 Y90.015 E19.87235
G1 X101.567 Y90.127 E20.06390
G1 X102.676 Y90.366 E20.27435
G1 X103.701 Y90.711 E20.47505
G1 X104.684 Y91.166 E20.67597
G1 X105.611 Y91.724 E20.87689
G1 X106.473 Y92.379 E21.07780
G1 X107.259 Y93.124 E21.27872
G1 X107.960 Y93.949 E21.47964
G1 X108.568 Y94.845 E21.68055
G1 X109.075 Y95.801 E21.88147
G1 X109.476 Y96.807 E22.08239
G1 X109.752 Y97.802 E22.27393
G1 X109.941 Y98.920 E22.48439
G1 X109.999 Y100.000 E22.68509
G1 X109.941 Y101.081 E22.88600
G1 X109.765 Y102.150 E23.08692
G1 X109.476 Y103.193 E23.28784
G1 X109.075 Y104.199 E23.48875
G1 X108.568 Y105.155 E23.68967
G1 X107.960 Y106.051 E23.89059
G1 X107.272 Y106.861 E24.08785
G1 X106.733 Y106.798 F7800.000
G1 X106.869 Y106.544 F7800.000
G1 F1800
G1 X106.143 Y107.232 E24.09203
G1 X105.325 Y107.853 E24.09632
G1 X104.444 Y108.383 E24.10062
G1 X103.512 Y108.815 E24.10491
G1 X102.538 Y109.143 E24.10921
G1 X101.538 Y109.360 E24.11349
G1 X100.511 Y109.475 E24.11780
G1 X99.490 Y109.475 E24.12207
G1 X98.465 Y109.363 E24.12638
G1 X97.465 Y109.143 E24.13066
G1 X96.485 Y108.813 E24.13498
G1 X95.556 Y108.383 E24.13926
G1 X94.675 Y107.853 E24.14356
G1 X93.857 Y107.232 E24.14785
G1 X93.114 Y106.528 E24.15213
G1 X92.446 Y105.742 E24.15644
G1 X91.872 Y104.895 E24.16072
G1 X91.387 Y103.981 E24.16504
G1 X91.008 Y103.030 E24.16932
G1 X90.737 Y102.042 E24.17360
G1 X90.567 Y101.024 E24.17792
G1 X90.512 Y100.000 E24.18220
G1 X90.567 Y98.974 E24.18650
G1 X90.733 Y97.964 E24.19078
G1 X91.009 Y96.967 E24.19510
G1 X91.389 Y96.016 E24.19938
G1 X91.870 Y95.108 E24.20368
G1 X92.446 Y94.258 E24.20797
G1 X93.111 Y93.475 E24.21226
G1 X93.857 Y92.768 E24.21656
G1 X94.672 Y92.149 E24.22084
G1 X95.559 Y91.615 E24.22516
G1 X96.488 Y91.185 E24.22944
G1 X97.462 Y90.857 E24.23374
G1 X98.465 Y90.637 E24.23803
G1 X99.486 Y90.525 E24.24232
G1 X100.514 Y90.525 E24.24662
G1 X101.531 Y90.638 E24.25090
G1 X102.541 Y90.858 E24.25522
G1 X103.509 Y91.184 E24.25949
G1 X104.447 Y91.619 E24.26381
G1 X105.325 Y92.147 E24.26809
G1 X106.145 Y92.771 E24.27240
G1 X106.889 Y93.475 E24.27668
G1 X107.554 Y94.258 E24.28097
G1 X108.130 Y95.108 E24.28527
G1 X108.610 Y96.013 E24.28955
G1 X108.993 Y96.974 E24.29387
G1 X109.263 Y97.958 E24.29813
G1 X109.433 Y98.978 E24.30246
G1 X109.488 Y100.000 E24.30674
G1 X109.433 Y101.026 E24.31103
G1 X109.267 Y102.040 E24.31532
G1 X108.992 Y103.030 E24.31962
G1 X108.611 Y103.984 E24.32391
G1 X108.130 Y104.892 E24.32821
G1 X107.554 Y105.742 E24.33250
G1 X106.919 Y106.489 E24.33660
M104 S200 ; set temperature
M140 S60 ; set bed temperature
G1 Z0.900 F7800.000
G1 E22.33660 F2400.00000
G92 E0
G1 X104.387 Y115.312 F7800.000
G1 E2.00000 F2400.00000

G1 F3600
G1 X106.336 Y122.584 E2.61461
G1 X99.725 Y123.454 E3.15895
G1 X99.725 Y115.925 E3.77356
G1 X104.313 Y115.321 E4.15132

G1 E2.15132 F2400.00000
G92 E0
G1 X107.725 Y113.929 F7800.000
G1 E2.00000 F2400.00000

G1 F3600
G1 X111.455 Y111.067 E2.38389
G1 X116.779 Y116.390 E2.99850
G1 X111.489 Y120.450 E3.54284
G1 X107.762 Y113.994 E4.15132

G1 E2.15132 F2400.00000
G92 E0
G1 X113.654 Y108.201 F7800.000
G1 E2.00000 F2400.00000

G1 F3600
G1 X115.454 Y103.856 E2.38389
G1 X122.726 Y105.805 E2.99850
G1 X120.175 Y111.965 E3.54284
G1 X113.719 Y108.238 E4.15132

G1 E2.15132 F2400.00000
G92 E0
G1 X117.334 Y116.889 F7800.000
G1 E2.00000 F2400.00000

G1 F3600
G1 X117.141 Y117.141 E2.02592
G1 X112.120 Y120.993 E2.54250
G1 X111.827 Y121.115 E2.56843
G1 X111.698 Y120.891 E2.58951
G1 X117.152 Y116.706 E3.15066
G1 X117.281 Y116.836 E3.16563

G1 E1.16563 F2400.00000
G92 E0
G1 X106.567 Y123.293 F7800.000
G1 E2.00000 F2400.00000

G1 F3600
G1 X106.274 Y123.415 E2.02592
G1 X100.000 Y124.241 E2.54251
G1 X99.685 Y124.200 E2.56843
G1 X99.685 Y123.941 E2.58951
G1 X106.501 Y123.044 E3.15067
G1 X106.548 Y123.221 E3.16563

G1 E1.16563 F2400.00000
G92 E0
G1 X94.108 Y123.207 F7800.000
G1 E2.00000 F2400.00000

G1 F3600
G1 X94.041 Y123.456 E2.02108
G1 X93.726 Y123.415 E2.04701
G1 X87.880 Y120.993 E2.56359
G1 X87.628 Y120.800 E2.58951
G1 X87.757 Y120.576 E2.61060
G1 X94.038 Y123.178 E3.16563

G1 X94.195 Y122.726 F7800.000

G1 F3600
G1 X88.035 Y120.175 E3.70997
G1 X91.799 Y113.654 E4.32458
G1 X96.144 Y115.454 E4.70847
G1 X94.215 Y122.654 E5.31695

G1 E3.31695 F2400.00000
G92 E0
G1 X83.294 Y117.152 F7800.000
G1 E2.00000 F2400.00000

G1 F3600
G1 X83.111 Y117.334 E2.02108
G1 X82.859 Y117.141 E2.04700
G1 X79.007 Y112.120 E2.56359
G1 X78.885 Y111.827 E2.58951
G1 X79.109 Y111.698 E2.61060
G1 X83.248 Y117.092 E3.16563

G1 X83.610 Y116.779 F7800.000

G1 F3600
G1 X79.550 Y111.489 E3.70996
G1 X86.071 Y107.725 E4.32457
G1 X88.933 Y111.455 E4.70846
G1 X83.663 Y116.726 E5.31695

G1 E3.31695 F2400.00000
G92 E0
G1 X76.956 Y106.501 F7800.000
G1 E2.00000 F2400.00000

G1 F3600
G1 X76.707 Y106.567 E2.02108
G1 X76.585 Y106.274 E2.04701
G1 X75.759 Y100.000 E2.56359
G1 X75.800 Y99.685 E2.58951
G1 X76.059 Y99.685 E2.61060
G1 X76.946 Y106.426 E3.16563

G1 E1.16563 F2400.00000
G92 E0
G1 X76.546 Y99.725 F7800.000
G1 E2.00000 F2400.00000

G1 F3600
G1 X84.075 Y99.725 E2.61461
G1 X84.688 Y104.387 E2.99850
G1 X77.416 Y106.336 E3.61311
G1 X76.555 Y99.799 E4.15132

G1 E2.15132 F2400.00000
G92 E0
G1 X77.274 Y94.195 F7800.000
G1 E2.00000 F2400.00000

G1 F3600
G1 X79.825 Y88.035 E2.54434
G1 X86.346 Y91.799 E3.15895
G1 X84.546 Y96.144 E3.54284
G1 X77.346 Y94.215 E4.15132

G1 E2.15132 F2400.00000
G92 E0
G1 X79.424 Y87.757 F7800.000
G1 E2.00000 F2400.00000

G1 F3600
G1 X76.793 Y94.108 E2.56116
G1 X76.544 Y94.041 E2.58224
G1 X76.585 Y93.726 E2.60816
G1 X79.007 Y87.880 E3.12475
G1 X79.200 Y87.628 E3.15067
G1 X79.359 Y87.719 E3.16563

G1 E1.16563 F2400.00000
G92 E0
G1 X83.221 Y83.610 F7800.000
G1 E2.00000 F2400.00000

G1 F3600
G1 X88.511 Y79.550 E2.54434
G1 X92.275 Y86.071 E3.15895
G1 X88.545 Y88.933 E3.54284
G1 X83.274 Y83.663 E4.15132

G1 E2.15132 F2400.00000
G92 E0
G1 X88.302 Y79.109 F7800.000
G1 E2.00000 F2400.00000

G1 F3600
G1 X82.848 Y83.294 E2.56116
G1 X82.666 Y83.111 E2.58224
G1 X82.859 Y82.859 E2.60816
G1 X87.880 Y79.007 E3.12475
G1 X88.173 Y78.885 E3.15067
G1 X88.265 Y79.044 E3.16563

G1 E1.16563 F2400.00000
G92 E0
G1 X95.613 Y84.688 F7800.000
G1 E2.00000 F2400.00000

G1 F3600
G1 X93.664 Y77.416 E2.61461
G1 X100.275 Y76.546 E3.15895
G1 X100.275 Y84.075 E3.77356
G1 X95.687 Y84.679 E4.15132

G1 E2.15132 F2400.00000
G92 E0
G1 X103.856 Y84.546 F7800.000
G1 E2.00000 F2400.00000

G1 F3600
G1 X105.805 Y77.274 E2.61461
G1 X111.965 Y79.825 E3.15895
G1 X108.201 Y86.346 E3.77356
G1 X103.925 Y84.575 E4.15132

G1 E2.15132 F2400.00000
G92 E0
G1 X102.488 Y90.763 F7800.000
G1 E2.00000 F2400.00000
G1 F3600
G1 X103.542 Y91.110 E2.09061
G1 X104.483 Y91.545 E2.17520
G1 X105.370 Y92.079 E2.25979
G1 X106.195 Y92.706 E2.34437
G1 X106.948 Y93.419 E2.42896
G1 X107.618 Y94.209 E2.51355
G1 X108.200 Y95.066 E2.59813
G1 X108.685 Y95.982 E2.68272
G1 X109.069 Y96.944 E2.76731
G1 X109.346 Y97.943 E2.85189
G1 X109.514 Y98.965 E2.93648
G1 X109.570 Y100.000 E3.02107
G1 X109.514 Y101.035 E3.10565
G1 X109.346 Y102.057 E3.19024
G1 X109.069 Y103.056 E3.27483
G1 X108.685 Y104.018 E3.35942
G1 X108.200 Y104.934 E3.44400
G1 X107.618 Y105.791 E3.52859
G1 X106.948 Y106.581 E3.61318
G1 X106.195 Y107.294 E3.69776
G1 X105.370 Y107.921 E3.78235
G1 X104.483 Y108.455 E3.86694
G1 X103.542 Y108.890 E3.95152
G1 X102.560 Y109.221 E4.03611
G1 X101.548 Y109.444 E4.12070
G1 X100.518 Y109.556 E4.20528
G1 X99.482 Y109.556 E4.28987
G1 X98.452 Y109.444 E4.37446
G1 X97.440 Y109.221 E4.45905
G1 X96.458 Y108.890 E4.54363
G1 X95.517 Y108.455 E4.62822
G1 X94.630 Y107.921 E4.71281
G1 X93.805 Y107.294 E4.79739
G1 X93.052 Y106.581 E4.88198
G1 X92.382 Y105.791 E4.96657
G1 X91.800 Y104.934 E5.05115
G1 X91.315 Y104.018 E5.13574
G1 X90.931 Y103.056 E5.22033
G1 X90.654 Y102.057 E5.30491
G1 X90.486 Y101.035 E5.38950
G1 X90.430 Y100.000 E5.47409
G1 X90.486 Y98.965 E5.55867
G1 X90.654 Y97.943 E5.64326
G1 X90.931 Y96.944 E5.72785
G1 X91.315 Y95.982 E5.81244
G1 X91.800 Y95.066 E5.89702
G1 X92.382 Y94.209 E5.98161
G1 X93.052 Y93.419 E6.06620
G1 X93.805 Y92.706 E6.15078
G1 X94.630 Y92.079 E6.23537
G1 X95.517 Y91.545 E6.31996
G1 X96.458 Y91.110 E6.40454
G1 X97.440 Y90.779 E6.48913
G1 X98.452 Y90.556 E6.57372
G1 X99.482 Y90.444 E6.65830
G1 X100.518 Y90.444 E6.74289
G1 X101.548 Y90.556 E6.82748
G1 X102.414 Y90.747 E6.89988
